TDC-TangChaoBanLi/Mjlab_RL_Assembly/src/mjlab_rl_assembly/utils/feasible_reset_dataset.csv
peg_x,peg_y,peg_z,peg_qw,peg_qx,peg_qy,peg_qz,q_init_ur_shoulder_pan_joint,q_init_ur_shoulder_lift_joint,q_init_ur_elbow_joint,q_init_ur_wrist_1_joint,q_init_ur_wrist_2_joint,q_init_ur_wrist_3_joint,q_reach_ur_shoulder_pan_joint,q_reach_ur_shoulder_lift_joint,q_reach_ur_elbow_joint,q_reach_ur_wrist_1_joint,q_reach_ur_wrist_2_joint,q_reach_ur_wrist_3_joint,peg_site_x,peg_site_y,peg_site_z,ee_init_x,ee_init_y,ee_init_z
0.04809629,-0.050534822,0.7449845,-0.7068552,-0.22519137,0.36880702,-0.5600232,-2.071156,4.906201,1.6568269,2.1802158,1.7021326,1.3649589,-2.0798483,5.0604563,1.3080543,2.3783362,1.6829607,1.3569555,0.04809629,-0.050534822,0.7449845,0.075012445,0.022608811,0.6823304
-0.28067362,-0.21364951,1.2257113,0.4280262,0.07381768,-0.82722974,-0.35642034,0.13998216,-3.2224097,1.1652882,-1.5375265,4.0328383,-4.2312136,0.05559092,-3.2578506,0.98619163,-1.3515275,4.1127024,-4.2199597,-0.28067362,-0.21364951,1.2257113,-0.2045964,-0.26629865,1.2636629
0.79622173,-0.21974081,0.54250443,0.5477833,0.052127488,-0.10729907,-0.8280719,-0.4153531,0.046641253,-1.140385,5.5667953,4.685296,-3.1590986,-0.41338274,-0.1624431,-0.9824882,5.618031,4.6872582,-3.1589777,0.79622173,-0.21974081,0.54250443,0.8166101,-0.23180017,0.4453505
0.08479168,0.20001239,-0.23695132,-0.13983883,-0.31166536,-0.225848,0.91230613,1.3283368,0.67680687,1.8831018,-1.6766616,1.9278191,2.4602182,1.1746949,0.838324,2.0630496,-2.073022,1.803289,2.3481264,0.08479168,0.20001239,-0.23695132,0.13534206,0.24993747,-0.3073228
-0.02745533,0.2220999,-0.22006406,-0.1814849,0.03681465,0.40180632,-0.8968052,-3.2668846,0.72889566,1.7239221,2.4329832,3.905024,1.917744,-2.830228,0.36398095,1.9760983,2.936027,4.0664573,2.4793088,-0.02745533,0.2220999,-0.22006406,-0.006267859,0.29283205,-0.28750333
0.5561353,0.087785296,1.0945972,0.5194821,0.2264998,-0.80949956,0.15344906,4.9832845,4.0810666,2.6316085,-2.555675,-5.776305,0.60324746,4.555357,4.3797836,2.761003,-3.386198,-5.4683275,1.1012104,0.5561353,0.087785296,1.0945972,0.63328815,0.13616121,1.1359155
0.2592096,-0.7799364,0.9636529,-0.10567041,-0.71962696,0.30725193,0.61365056,-2.0700223,-0.9046708,1.4358494,3.3260453,0.3001961,-2.8174083,-2.1902442,-0.76230943,1.3475602,3.158282,0.44084418,-2.7059586,0.2592096,-0.7799364,0.9636529,0.35402298,-0.80243677,0.9861063
-0.35717,-0.5107269,0.019769467,0.5576329,0.34843403,0.20675357,0.72449446,-1.7993119,-0.13159792,1.6624362,3.0522215,3.867202,4.1646276,-1.7053899,-0.37107676,1.8313677,3.215522,3.9166725,4.2852874,-0.35717,-0.5107269,0.019769467,-0.43071622,-0.50182563,-0.04739987
-0.46776164,0.18441284,1.3006065,-0.32612443,-0.44932747,-0.7097195,0.43364263,-5.4721613,-3.236804,1.6697642,-2.1797345,-0.8238693,5.5118814,-5.3510246,-3.3124242,1.5733422,-1.9334193,-0.924752,5.4124,-0.46776164,0.18441284,1.3006065,-0.4750835,0.27527308,1.3417258
0.69035083,0.36370867,0.1411711,0.80798465,0.28910622,-0.44290978,-0.25963312,0.37024552,0.0547124,1.846512,1.7018616,-1.6615306,-3.7773817,0.380134,0.027868189,2.1181083,1.473381,-1.6594163,-3.7721472,0.69035083,0.36370867,0.1411711,0.776936,0.38742852,0.0971214
-0.70793414,-0.61657673,0.8281256,-0.47669214,0.035104908,-0.8696212,0.12365771,-2.1415575,0.6159047,-1.1684351,5.7555585,2.5149553,0.87463087,-2.0364518,0.745106,-1.2529339,5.6046963,2.5565078,0.7503131,-0.70793414,-0.61657673,0.8281256,-0.7917106,-0.59841645,0.87962025
0.348485,-0.27428293,0.14279807,-0.4150542,0.15663616,0.27666146,-0.85243976,-1.673963,-0.7589644,2.2556863,3.6795034,-1.056386,-2.456494,-1.7348627,-1.0104803,2.2078314,3.9942484,-1.1213737,-2.509655,0.348485,-0.27428293,0.14279807,0.39815548,-0.24011798,0.06301335
-0.4469477,-0.80003643,0.8554843,0.56325465,-0.4182105,-0.13177668,-0.7003421,4.029362,4.8664026,1.4401709,-2.5050635,4.7689934,1.1587298,3.9942536,4.676484,1.4765694,-2.3512905,4.8085318,1.1184709,-0.4469477,-0.80003643,0.8554843,-0.490681,-0.86560595,0.7939374
0.2560712,-0.29209155,0.6018839,-0.4849441,-0.375782,0.7820196,-0.10982882,4.3406796,6.002031,1.3490248,5.813789,-1.1203077,-1.6341659,4.264098,6.19149,1.01119,5.941725,-1.17964,-1.5878545,0.2560712,-0.29209155,0.6018839,0.32366404,-0.23846723,0.65243727
-0.13536452,0.7705957,0.10550405,0.5889965,0.73873234,0.24885349,-0.21314205,1.6566314,-5.8934035,1.457148,-2.0234427,1.6983261,0.6535708,1.7120231,-5.7550354,1.4990741,-2.2114446,1.751346,0.64733785,-0.13536452,0.7705957,0.10550405,-0.13318829,0.8682261,0.12703477
0.02709018,-0.049776204,1.3851166,0.42124188,0.42555666,0.7905354,-0.12849377,-1.1345824,-1.6401019,1.8336536,-2.647578,1.8411878,4.7291408,-1.0985775,-1.4126916,1.7696816,-2.810209,1.7980025,4.708408,0.02709018,-0.049776204,1.3851166,-0.028574865,0.006392028,1.4463255
0.41178256,-0.7093142,0.9447128,0.4667436,-0.6794495,-0.5463962,-0.1481551,-1.2172166,-0.8052626,1.9840996,1.4156727,-1.5558217,0.99457335,-1.2270346,-0.7279047,2.1976686,1.1261809,-1.5448042,0.998234,0.41178256,-0.7093142,0.9447128,0.44265518,-0.78893024,0.9967529
-0.113115035,-0.12744622,1.4568735,-0.50561845,-0.8224985,-0.25745115,-0.039561283,1.9039313,-2.9686463,1.3027179,4.289552,-1.5357069,-2.8928413,1.9158826,-3.0269046,1.1384408,4.5204935,-1.5429709,-2.8898845,-0.113115035,-0.12744622,1.4568735,-0.14565726,-0.046309162,1.5054306
-0.53970885,-0.08371289,0.11782058,0.043461,0.24548578,-0.39660504,-0.8834887,-0.1355424,-2.9906561,-0.85664654,4.6595726,2.2106268,-5.1986165,-0.21484192,-3.108274,-0.42640126,4.3018017,2.168735,-5.283513,-0.53970885,-0.08371289,0.11782058,-0.49288467,-0.1516583,0.061332352
-0.13938132,0.22332992,1.4179118,0.21043444,-0.35241035,-0.90778416,0.08632595,6.094552,4.5029173,-1.4987292,-4.1283107,-4.8288226,-2.139539,6.090919,4.3537135,-1.5411494,-3.9387128,-4.8143106,-2.1303365,-0.13938132,0.22332992,1.4179118,-0.09509108,0.22417112,1.5075648
-0.48012465,0.06476808,1.3676759,-0.05734915,-0.9940634,0.088773645,0.025851933,-6.0010753,4.5851684,-1.9969946,-0.92651725,4.833713,-2.0474591,-5.992802,4.401154,-2.0886314,-0.65067077,4.825151,-2.055265,-0.48012465,0.06476808,1.3676759,-0.47396675,0.075710826,1.4668844
-0.095329545,-0.15837851,1.1902763,-0.6083253,0.7138582,-0.2389784,-0.251468,1.5512967,4.5126467,1.907321,3.1393957,-4.6293497,-0.70301527,1.5750107,4.7652693,1.7073774,3.0863025,-4.649649,-0.7089556,-0.095329545,-0.15837851,1.1902763,-0.08850237,-0.25724918,1.2036171
-0.5110667,0.11879843,0.92142296,0.04864848,0.9030874,-0.41155055,-0.11266151,0.014786795,-2.983911,-0.8800551,-3.757883,-4.6976576,0.71676576,0.021144228,-3.24134,-0.59894514,-3.81077,-4.706043,0.6988732,-0.5110667,0.11879843,0.92142296,-0.48671377,0.11831201,1.018411
0.2971412,-0.79421335,0.8789056,-0.82198983,0.46395007,0.29764518,-0.14314477,-1.8775,-1.5770873,1.8072033,3.6346989,-0.64608616,-0.2153934,-2.0768445,-1.7891172,1.8605044,4.0004077,-0.51124555,-0.4659289,0.2971412,-0.79421335,0.8789056,0.35935587,-0.8619645,0.8396741
-0.6408228,0.4550006,0.41076183,-0.5031498,-0.56181455,0.3415152,-0.56086725,-3.396494,5.619728,1.771276,-0.8494536,2.5800865,-1.1602007,-3.2111132,5.597431,1.8332162,-0.83444864,2.7528276,-1.1019571,-0.6408228,0.4550006,0.41076183,-0.66947687,0.5498449,0.39721546
-0.8914719,-0.04373616,0.42930213,0.29708138,0.15325154,-0.010565211,0.94241446,3.1084774,5.398,1.2414407,4.0323906,4.593738,-4.1821,3.0907557,5.2938957,1.1386389,4.2658076,4.636252,-4.185054,-0.8914719,-0.04373616,0.42930213,-0.9197295,-0.03263916,0.33402166
0.09735474,0.16173144,0.35617334,0.5614888,0.58044004,-0.56789035,0.15912338,-4.6835957,3.1288764,-1.9519582,-1.5473394,2.0737667,-1.2320458,-4.836421,3.116261,-1.669729,-1.7950653,1.9356365,-1.1812054,0.09735474,0.16173144,0.35617334,0.14265524,0.24498647,0.38805535
0.028530903,0.1304894,0.1317586,-0.6734157,0.25204074,-0.52077305,-0.46019796,0.88943887,6.050501,1.480411,4.691215,-1.7222003,1.3668509,0.91228634,6.0845594,1.1790875,4.961076,-1.7007698,1.3759494,0.028530903,0.1304894,0.1317586,-0.018410722,0.04861202,0.09870441
-0.23831253,0.6032938,-0.24818386,-0.23397353,-0.35965678,0.3733199,-0.8225179,5.4238796,2.594375,-1.3515093,4.543798,-1.3993274,4.2903986,5.619007,2.5810144,-1.629255,4.802599,-1.2313013,4.3886156,-0.23831253,0.6032938,-0.24818386,-0.28000796,0.68153626,-0.2944397
-0.44370234,-0.8037675,0.548331,-0.19074441,0.60881764,0.0033565043,0.7700301,-1.7487167,-5.499612,-1.4024982,-1.950096,3.6379156,-4.4339046,-1.6138281,-5.4941726,-1.5287491,-1.6637313,3.5336046,-4.2516656,-0.44370234,-0.8037675,0.548331,-0.5373359,-0.8275101,0.52246505
0.27432558,-0.18848194,1.2152896,-0.012978299,-0.20324247,-0.9657527,0.16076621,-1.2487832,5.00216,2.3534272,-2.9330196,1.4314301,5.567713,-1.2702442,5.321448,2.2971003,-3.200542,1.4457427,5.5768723,0.27432558,-0.18848194,1.2152896,0.27835372,-0.15690231,1.3100867
0.10483005,0.14742844,1.3129891,-0.39095238,-0.8495928,0.16485848,0.3133209,-3.093901,-2.1662605,2.215915,3.723045,2.163487,-2.289575,-2.9363754,-1.8420162,2.175249,3.3803525,2.0209792,-2.4124327,0.10483005,0.14742844,1.3129891,0.17095944,0.20352778,1.3627863
-0.28157637,-0.075366735,0.6740776,0.6474,-0.044173237,-0.6562034,-0.3851221,-0.084955744,2.6528518,1.0198588,5.944448,-2.0707312,-4.147717,-0.15592419,2.940232,0.38844505,6.2384424,-2.0137897,-4.1932263,-0.28157637,-0.075366735,0.6740776,-0.20001356,-0.13162997,0.6605884
0.20927086,0.05135579,-0.108981185,0.62809694,0.31582046,0.0742628,0.70727414,-0.48581094,-6.1428185,1.1542836,-5.37216,-4.730015,-3.7474167,-0.48610365,-6.2616343,1.1040651,-5.1915636,-4.7288914,-3.747955,0.20927086,0.05135579,-0.108981185,0.15526769,0.08052413,-0.18792967
0.087403804,-0.09894048,0.1483571,0.8955222,0.2699921,-0.31569386,0.15962993,1.5329332,-2.829163,-1.7497946,2.278479,-2.0494585,-3.713902,1.4361452,-2.7402353,-1.6001512,1.9949493,-1.9793409,-3.7968116,0.087403804,-0.09894048,0.1483571,0.1353262,-0.040504854,0.08286876
-0.21670258,-0.29433388,0.23732017,0.16279413,-0.37192896,0.34476593,-0.8463471,2.0797818,3.8206904,-1.889724,-1.3587466,1.1425515,3.4926734,2.1421165,3.8865886,-1.7250769,-1.5731871,1.2072072,3.5111148,-0.21670258,-0.29433388,0.23732017,-0.29088396,-0.24808513,0.1887591
0.735742,-0.4052636,0.058369543,-0.29539955,-0.013527848,-0.239614,-0.92473847,-0.41981536,-0.19231255,0.86960924,4.00371,-2.0107255,-1.3671554,-0.33639583,-0.3070409,0.87844855,4.153742,-2.0548468,-1.2862545,0.735742,-0.4052636,0.058369543,0.71908367,-0.44878042,-0.03011088
-0.077656075,0.08745401,1.3444537,0.38977966,0.23238418,0.85306215,0.2575935,4.120816,-3.2217143,2.0245426,3.6233327,-2.102304,3.4479306,3.9963114,-3.3785884,1.8830017,4.0114355,-2.018,3.5498388,-0.077656075,0.08745401,1.3444537,-0.15612946,0.06162108,1.4007971
0.5280725,-0.6461181,0.8050542,-0.1713778,-0.22273852,0.94751847,0.1524005,-1.2248651,-0.28704324,1.5560778,-2.470675,1.2747319,0.055936713,-1.275854,-0.08845359,1.486603,-2.6261334,1.2519902,0.11031886,0.5280725,-0.6461181,0.8050542,0.5673383,-0.66736406,0.8945349
0.6960222,-0.43990004,0.4346892,-0.67330456,0.2991607,0.65188324,0.17947713,-0.7818197,-0.6252274,2.2679315,-1.6733437,1.4773322,-1.7376381,-0.784946,-0.55905205,2.505119,-1.9656432,1.4895326,-1.7294098,0.6960222,-0.43990004,0.4346892,0.77306694,-0.5035849,0.43757898
-0.19990891,0.009395289,1.2006046,-0.5119488,-0.8236757,0.114393674,-0.21536203,4.2040997,0.29778492,-1.9808812,-0.9342343,-4.014829,2.961463,4.3177385,0.3590017,-1.7517024,-1.3018869,-4.13137,2.8708308,-0.19990891,0.009395289,1.2006046,-0.22367387,0.098658465,1.2389101
0.5428492,0.053989954,0.8380016,-0.11034929,0.41958147,0.7107071,-0.55377775,-1.2069966,-1.0861982,2.0612974,6.0529623,-0.6201064,-4.1220617,-1.4866713,-1.1123976,2.0921679,5.8240485,-0.789028,-3.844746,0.5428492,0.053989954,0.8380016,0.6050053,0.12344461,0.87423223
-0.48621222,-0.6421031,0.7139694,-0.38740292,0.8570844,-0.072568424,-0.3317517,-5.738466,3.3762136,-1.0540259,-0.610752,3.63187,4.0861807,-5.8473105,3.19361,-0.8345431,-0.48588222,3.6581657,4.2741218,-0.48621222,-0.6421031,0.7139694,-0.434967,-0.7133254,0.7619414
0.2365063,-0.07091907,0.6598367,0.02075492,0.97907096,-0.18218681,0.08830229,3.2733414,-3.5090134,-1.7003676,-5.6179476,4.641494,-5.2137794,3.151817,-3.6785426,-1.3257078,-5.7958994,4.6107736,-5.079807,0.2365063,-0.07091907,0.6598367,0.2199717,-0.06363745,0.7581911
0.0722044,0.245488,1.3160884,0.5161054,-0.29943103,-0.77241546,0.2176019,2.2855783,-1.6174682,1.7130495,-2.6700683,-3.9127822,1.2307707,2.4617665,-1.4066131,1.5751258,-2.8284361,-4.032332,1.1074222,0.0722044,0.245488,1.3160884,0.16496532,0.24819621,1.3533453
-0.24743356,0.52992743,1.0696541,-0.6764401,-0.6592042,0.15158072,0.2913793,-0.0023091563,-2.730218,0.83491874,2.0290587,-5.658653,0.072294235,0.13967466,-2.6560738,0.58617204,2.1614056,-5.5248127,0.11539775,-0.24743356,0.52992743,1.0696541,-0.1885108,0.6102764,1.0611595
0.19691889,0.1353827,0.36968973,0.35959834,0.1664378,0.18520965,-0.8992691,4.781232,-2.701903,2.7021465,5.1825886,-1.410694,-3.8881235,4.651889,-2.5552628,2.4654455,5.286285,-1.4755353,-3.98819,0.19691889,0.1353827,0.36968973,0.21353315,0.18066351,0.28209054
-0.8021467,0.16463287,0.64852804,-0.1596051,0.8541146,-0.2191117,0.44385198,2.3678815,5.854208,2.0792701,-2.4499722,-5.401313,-1.587512,2.2274966,6.078054,2.1655512,-2.8294413,-5.466814,-1.480282,-0.8021467,0.16463287,0.64852804,-0.88496107,0.1568193,0.70403236
0.9028481,-0.12117519,0.7983699,0.11786943,-0.31215972,0.110782236,0.9361572,3.403129,-1.9060822,-1.0938416,-1.16477,-5.176259,5.101161,3.4509208,-1.8175694,-0.983789,-1.388873,-5.1657925,5.148675,0.9028481,-0.12117519,0.7983699,0.95868266,-0.14927593,0.7203132
0.035393227,0.8559299,0.79635984,-0.32490557,0.12375608,0.80158466,-0.48639777,1.8522532,-0.99192506,1.72511,-1.2411234,2.5457585,-3.1339517,1.9812824,-0.9586034,1.8952658,-1.5972773,2.6153758,-3.2959437,0.035393227,0.8559299,0.79635984,0.09952003,0.9258659,0.82793057
-0.03353495,-0.62096757,-0.004312387,0.7518256,-0.63504475,-0.16363816,-0.068549454,1.5789815,-3.539586,-1.7843719,5.156566,4.525726,3.4570744,1.3046806,-3.612,-1.8592993,5.296436,4.24749,3.3982267,-0.03353495,-0.62096757,-0.004312387,-0.017635878,-0.71869963,-0.018300524
-0.25655153,0.1820632,-0.04594843,-0.29712656,-0.026325477,0.16750659,-0.9396618,-3.6414936,6.2130413,2.3664925,2.305202,-1.9207298,1.6750407,-3.5871267,5.9530544,2.5875812,2.351159,-1.8950176,1.7209909,-0.25655153,0.1820632,-0.04594843,-0.25154483,0.21510752,-0.14019814
0.0043157996,0.9427082,0.8273099,0.2009526,0.25824788,-0.8762029,0.35382855,-4.806918,-0.66592926,1.7629124,4.449498,1.6708813,3.8541925,-4.7847977,-0.59378016,1.9456449,4.209348,1.6890363,3.8471816,0.0043157996,0.9427082,0.8273099,0.021255756,1.0150924,0.8941946
-0.3509871,0.2737804,1.1541444,-0.0068254373,-0.88070405,0.20176284,-0.42849216,0.84215194,4.475238,2.341803,0.5292429,5.418359,3.6090946,0.29880747,4.4124436,2.4480538,0.1834665,5.118355,4.1411605,-0.3509871,0.2737804,1.1541444,-0.42618662,0.2922734,1.2174139
-0.09058699,-0.9386833,0.43854937,0.92528105,-0.35834038,-0.08607984,-0.08965174,-2.0074239,-0.9400804,1.7169907,3.2660422,-1.1884067,-0.1088138,-2.0821488,-1.1773882,1.8737122,3.3711045,-1.1358947,-0.17023067,-0.09058699,-0.9386833,0.43854937,-0.08108255,-1.0065398,0.36571288
0.43191093,0.37989312,0.7666372,-0.080809765,-0.6303134,0.6559363,0.40733573,4.7178206,2.4153938,1.0821159,1.8412387,0.9043707,1.2856236,4.8156548,2.408578,0.8979004,2.0522335,0.9618634,1.2179128,0.43191093,0.37989312,0.7666372,0.49386197,0.33664298,0.8321467
-0.2835658,-0.15438488,0.088276535,-0.72616583,-0.43652138,-0.48527566,-0.21596256,-1.5231389,0.052120227,1.744344,4.170498,-2.6286094,-6.0119796,-1.3326163,-0.032271244,1.6002991,4.4537683,-2.433783,-5.937003,-0.2835658,-0.15438488,0.088276535,-0.37289837,-0.111947775,0.07348521
0.49443346,0.48751855,0.28970182,-0.5573778,0.38278356,-0.06381909,-0.7339849,1.0536721,-0.5553164,1.1464467,-1.8500942,-2.2972097,0.9442791,1.1508071,-0.5983904,1.0270853,-1.6377096,-2.2890704,1.0115877,0.49443346,0.48751855,0.28970182,0.5435107,0.4354791,0.21982107
0.05151418,0.9365058,0.51329094,-0.7233864,-0.09705838,-0.6268556,0.2726606,0.8213898,-0.36832708,0.72518826,5.254194,-0.29255718,-3.8627741,0.7073592,-0.37238908,0.63324153,5.4435406,-0.37969163,-3.9658377,0.05151418,0.9365058,0.51329094,-0.03388479,0.9847317,0.4937646
0.36961251,-0.066014215,1.157402,0.19233483,0.09797899,0.9246924,-0.31361026,-0.842806,5.349643,1.7063832,-3.0581963,1.3663249,-0.86568266,-0.8542479,5.5795717,1.513615,-3.091947,1.3884444,-0.86030036,0.36961251,-0.066014215,1.157402,0.34018782,-0.004246656,1.2303332
0.06527818,-0.8692976,0.08814883,0.5899665,-0.55350184,0.33701667,0.48165858,1.9226156,3.135081,-1.6590865,4.6338034,-1.3544701,-4.3365483,1.9519497,3.1287186,-1.9182903,4.890679,-1.347758,-4.3291883,0.06527818,-0.8692976,0.08814883,0.078832254,-0.96707255,0.07213774
0.86539894,0.27093986,0.6951657,0.76905364,0.05067677,-0.4393068,-0.46151695,4.043336,2.9830163,1.351329,-2.4668758,-5.598422,-2.8635347,4.1576185,3.1279604,1.3298208,-2.710019,-5.6128693,-2.7092805,0.86539894,0.27093986,0.6951657,0.9376467,0.23818499,0.6342774
-0.21060917,0.2951231,0.49352726,-0.10262496,-0.4853562,-0.40050358,-0.77038586,-5.280369,-5.317663,-1.4545475,-2.879363,-5.1462426,2.481622,-5.3495035,-5.5138326,-1.1645342,-2.9704182,-5.0814633,2.4721756,-0.21060917,0.2951231,0.49352726,-0.29361182,0.24337657,0.472722
-0.12630896,0.84742117,0.96341765,0.7664191,0.53772515,-0.35073018,-0.021017423,-0.6287915,-1.837179,-1.3637617,4.7485437,0.17903243,-2.1011937,-0.4533861,-1.7262655,-1.3171617,4.0980268,0.2101258,-1.5879791,-0.12630896,0.84742117,0.96341765,-0.070287384,0.9283714,0.9458496
0.58585197,-0.62481457,0.9001011,-0.3718107,0.62772167,0.6344961,0.25521964,-0.67308074,-0.93809295,1.8987019,4.563405,2.1232774,-2.2177317,-0.57815737,-0.840636,2.0255804,4.277791,2.1808407,-2.3131893,0.58585197,-0.62481457,0.9001011,0.60099304,-0.7038804,0.9594251
-0.028055517,0.8505,0.6417764,-0.9514483,-0.26695505,-0.063829176,0.13930865,1.3757606,-1.3134428,1.490384,3.9946136,-1.4442431,-2.9996974,1.3319168,-1.4794633,1.4881629,4.1516876,-1.4072409,-3.019049,-0.028055517,0.8505,0.6417764,-0.03276372,0.9030772,0.5568442
-0.13417526,0.66855556,0.9334303,-0.5642835,-0.15971543,0.4567457,-0.6689234,2.0125,6.096839,-1.6631701,-0.5557351,4.053562,-4.739754,2.143079,5.906527,-1.5587832,-0.3994468,4.000801,-4.6337795,-0.13417526,0.66855556,0.9334303,-0.10399591,0.7476861,0.88025546
-0.55563045,-0.22612312,0.6888074,-0.6098368,0.027164886,-0.27634937,0.7422885,-2.5207524,-0.06204923,-1.4610716,6.1341352,-2.1557298,-5.5037966,-2.4595022,-0.29900724,-1.1909665,6.1289697,-2.1244743,-5.4288826,-0.55563045,-0.22612312,0.6888074,-0.5933689,-0.18841016,0.60422885
0.017129604,0.43972263,1.2506884,0.6094082,0.22301136,-0.7349612,0.19677281,6.201156,-3.110131,1.6986232,4.3130813,5.392391,1.706068,6.2829804,-3.1566238,1.5204881,4.5662446,5.2650733,1.6720762,0.017129604,0.43972263,1.2506884,0.09793137,0.4958277,1.2686688
0.07412866,0.26777157,1.2208701,-0.447295,0.24353594,0.74520415,-0.43045112,2.5809538,-1.8024479,1.9654064,-2.870093,2.5346103,-5.4231915,2.8190591,-1.5671586,1.8023804,-3.0633178,2.3448029,-5.5778217,0.07412866,0.26777157,1.2208701,0.16175994,0.3101399,1.2437979
0.48921454,-0.05156144,1.0518272,0.64510864,0.68343586,-0.33200264,0.08077449,-1.2465415,-1.0974627,1.5268524,2.9113178,0.88091815,-3.836854,-1.3214264,-0.91071963,1.2586845,2.9805,0.9779398,-3.8208208,0.48921454,-0.05156144,1.0518272,0.52100927,0.041980103,1.0672892
-0.09878674,0.311737,1.0980612,-0.74114,0.06448065,-0.65389884,0.1377317,4.0326905,3.170122,1.4332328,-1.2269615,-2.5476587,5.147457,3.8879938,3.2242033,1.1584512,-1.0682042,-2.3903873,5.092282,-0.09878674,0.311737,1.0980612,-0.19748907,0.32019168,1.0844095
0.2046393,-0.89301664,0.5240492,-0.66994727,0.41414115,0.3346922,-0.5173383,-2.009989,-0.59787875,0.93574166,4.7819843,-0.4843836,-2.0078382,-2.1193657,-0.66550696,0.90501535,5.0055394,-0.5274548,-2.1581247,0.2046393,-0.89301664,0.5240492,0.29233474,-0.91387737,0.4807556
0.015021372,-0.2776296,0.15131633,-0.2176974,0.53196985,0.10008196,0.81215733,3.2316668,3.1860375,-1.5661162,-4.2647915,5.018559,-4.9554358,3.3206656,3.1979146,-1.376957,-4.517413,4.9575186,-4.9031153,0.015021372,-0.2776296,0.15131633,-0.06702976,-0.31704777,0.109918
-0.53445494,0.26957625,0.7331728,0.577303,0.38020363,0.6875969,0.22220927,1.1805779,-1.4024111,2.5692365,-0.48836884,-0.31460088,0.04545461,0.7282462,-1.2103556,2.6704798,-1.0687871,-0.7626353,0.40786996,-0.53445494,0.26957625,0.7331728,-0.63074225,0.28291672,0.7566417
0.34907195,0.4738706,0.17700787,-0.90418696,0.072693974,0.4171118,-0.056385122,1.3632325,-0.48049688,2.0213945,3.0223675,-2.4525354,-3.5689197,1.5018737,-0.7306637,2.0571625,3.4235756,-2.4334838,-3.3211515,0.34907195,0.4738706,0.17700787,0.42532116,0.4654286,0.112861216
0.68332297,-0.21289892,-0.13817656,0.6336597,-0.0392771,-0.52950805,0.56263125,2.4068208,-3.8068607,-0.525286,6.2630935,-3.6164744,5.8854723,2.2620718,-3.5308433,-0.9596419,6.136481,-3.6077023,5.567599,0.68332297,-0.21289892,-0.13817656,0.75484824,-0.15829304,-0.18179227
-0.4608235,-0.21125534,0.38501954,-0.021371732,-0.3931598,0.3455251,-0.85181046,1.5493745,-4.106327,1.5437161,0.075865775,-0.84442586,0.40125942,1.6725118,-3.974302,1.4265735,0.000801187,-0.9384215,0.4953754,-0.4608235,-0.21125534,0.38501954,-0.5263261,-0.15071046,0.33981198
0.916762,-0.32867172,0.5189003,-0.06534246,-0.21086237,0.3855677,0.89588225,6.074538,-0.28961346,-0.00680846,-5.1132135,-4.1332865,0.97696275,6.1565285,-0.606526,0.4751888,-5.24244,-4.0867395,1.0529616,0.916762,-0.32867172,0.5189003,0.9595824,-0.39500073,0.45752537
0.16610515,0.6353899,-0.19492383,0.5496615,0.1467896,0.36716324,-0.7358778,-1.9479667,-3.3010595,-1.3432257,3.7756276,-2.024348,1.6480973,-2.0267596,-3.1256592,-1.6567692,3.8798282,-2.038596,1.5777351,0.16610515,0.6353899,-0.19492383,0.1473459,0.7055643,-0.26365262
0.32550323,-0.061822664,0.71218187,-0.37177154,0.23910102,0.58772355,-0.6776413,-2.063515,4.638814,2.1166382,5.5948033,-1.1820486,3.337429,-2.1437387,4.8100524,1.882106,5.6584563,-1.2698555,3.3553686,0.32550323,-0.061822664,0.71218187,0.40160793,5.2288273e-05,0.69269955
-0.14166513,0.6646187,0.5623952,-0.44034523,0.1875041,-0.3367181,0.8109003,0.99919695,-1.4908173,1.9700325,4.2351694,-0.77995116,-1.5657859,0.8412383,-1.6131462,1.8716111,4.5968676,-0.7846007,-1.772314,-0.14166513,0.6646187,0.5623952,-0.201729,0.7027143,0.49210256
0.4108817,-0.0728262,-0.30783248,-0.48632857,0.3145465,-0.057588205,0.81315964,3.3740082,-3.9490592,0.1889003,4.6423926,-4.7802353,-2.3930166,3.38224,-3.9112625,0.36840758,4.445959,-4.7729154,-2.3917444,0.4108817,-0.0728262,-0.30783248,0.35412502,-0.0940551,-0.38738132
0.21954913,-0.4504307,0.9828925,0.3800888,-0.053339962,-0.2977976,-0.8740732,-3.4355798,-1.1886219,-1.107767,-2.0692408,1.064784,-2.7873013,-3.0827894,-1.3611575,-0.5181519,-2.70544,0.9709708,-2.3749068,0.21954913,-0.4504307,0.9828925,0.23286244,-0.5065449,0.9011982
0.25952938,-0.22692646,0.33225742,-0.71420926,0.16650021,-0.64119434,-0.22594832,-0.18002588,0.8345174,-1.207967,0.2140087,-2.2659888,1.418267,-0.072117485,0.6088891,-0.81554914,0.061652113,-2.19038,1.4431617,0.25952938,-0.22692646,0.33225742,0.17546408,-0.27968502,0.32002792
-0.60673136,-0.2202187,0.9834397,-0.27094156,0.3046583,-0.7019093,0.58403534,1.3697339,4.181256,-1.1331856,-3.3920689,-5.740986,-2.8669827,1.5148202,4.1115956,-1.0528728,-3.3320153,-5.616602,-2.951465,-0.60673136,-0.2202187,0.9834397,-0.68035287,-0.15473965,1.0005383
0.08446318,-0.7233567,0.37667376,0.33456507,-0.52518505,0.65895694,0.42192724,-1.7517923,0.4366534,1.3733685,0.9299751,-1.4051826,-1.7279145,-1.8467096,0.6382362,1.2936202,0.7650465,-1.3215966,-1.680489,0.08446318,-0.7233567,0.37667376,0.08468836,-0.8141048,0.4186825
0.60326445,-0.4515671,0.17165448,-0.91784036,0.3636565,0.13580051,-0.082953006,-0.56895566,-0.64821094,1.7095509,6.0795703,-4.3209205,-2.4642723,-0.49032885,-0.8477239,1.8822471,6.125727,-4.2766047,-2.4076633,0.60326445,-0.4515671,0.17165448,0.6342264,-0.5160698,0.10179204
-0.66121656,-0.18825613,0.8856479,-0.29064226,0.57199866,-0.7587093,-0.11271552,2.7715125,-0.5782298,2.050539,3.379079,-5.3295903,3.1872473,2.6360636,-0.35684094,2.0050247,3.1059701,-5.355256,3.3512022,-0.66121656,-0.18825613,0.8856479,-0.6924245,-0.2386092,0.96621233
-0.12719516,0.5058799,1.2166201,-0.03772298,0.5078457,-0.48107886,0.7136055,0.22156799,-0.23733649,-1.6661998,-1.2911305,0.6458952,0.81139445,-0.014610638,-0.20399341,-1.611889,-1.355802,0.882641,0.7795098,-0.12719516,0.5058799,1.2166201,-0.20330502,0.5707085,1.2144889
-0.39329442,0.51316214,0.20265058,-0.7987836,-0.10445974,0.030937817,-0.591672,-0.6127347,2.5347142,1.3871095,-5.311004,-1.4459623,-0.3294102,-0.5966192,2.679781,1.4175578,-5.4870305,-1.450211,-0.3282661,-0.39329442,0.51316214,0.20265058,-0.40071306,0.5335113,0.10502437
0.29557472,0.058082424,0.4846675,-0.8646045,-0.22049691,-0.07180548,-0.44574,-0.51439655,-1.1397395,1.600232,1.562185,1.4431245,-3.0713067,-0.5314009,-1.1153936,1.3208083,1.8202609,1.4571044,-3.0813386,0.29557472,0.058082424,0.4846675,0.2635012,0.089809634,0.3954225
0.10327846,-0.036621492,0.409439,0.4380902,0.59574103,-0.62062174,-0.26076463,-5.477699,3.1085503,-1.684506,-2.0004086,2.0703928,5.712192,-5.596176,3.01262,-1.3482891,-2.203025,1.9689802,5.7881417,0.10327846,-0.036621492,0.409439,0.18872575,-0.01679107,0.45745477
0.3824974,0.7013838,0.7814257,-0.37603945,0.07961483,0.58300453,-0.7157943,-5.442534,0.518437,-2.3024962,5.238386,-1.4675816,0.3151558,-5.4916897,0.28410092,-2.4620178,5.6330357,-1.4208508,0.29904988,0.3824974,0.7013838,0.7814257,0.43774152,0.7788584,0.7506723
-0.065915786,0.9070577,0.43262112,-0.9037697,-0.33797646,-0.26199165,-0.018238068,4.6650653,2.378596,1.6777538,-1.7517766,-4.1883993,-3.0248828,4.5639443,2.458427,1.7921029,-1.9959213,-4.1107745,-3.1213584,-0.065915786,0.9070577,0.43262112,-0.11450461,0.96719265,0.36919466
-0.41440016,0.5083716,0.017392833,0.16594876,0.0018779463,-0.0052605215,-0.98611856,2.0515764,-0.4844644,1.6076481,3.592832,-1.5720775,0.148602,2.0914783,-0.6791884,1.6474845,3.7555761,-1.6150283,0.18590906,-0.41440016,0.5083716,0.017392833,-0.4138552,0.5073964,-0.08260093
0.56856775,0.26457015,1.076181,-0.63710725,-0.688203,-0.27954835,0.20572723,-0.57674927,-0.9375046,0.63232845,0.48687717,-0.6188909,0.55347663,-0.6771009,-0.67796135,0.24930996,0.6323723,-0.749895,0.5217485,0.56856775,0.26457015,1.076181,0.56126374,0.3637641,1.0865351
0.86083645,0.3631973,0.6072964,0.30510676,-0.24695988,-0.37266117,0.8408593,-0.0048251273,0.47169867,-1.7509751,-1.0687073,-1.0700266,-0.70033664,-0.10277092,0.39978418,-1.9463587,-0.8026161,-1.0013244,-0.7379559,0.86083645,0.3631973,0.6072964,0.92510843,0.41079858,0.5472695
0.16127661,-0.17708696,-0.16399021,0.3472245,-0.06605645,0.27007335,-0.89561826,-3.774553,-3.076079,-1.7156606,5.827338,-4.5358057,-2.9882166,-3.7935543,-2.873114,-1.7437971,5.6493487,-4.557339,-2.9949093,0.16127661,-0.17708696,-0.16399021,0.13068913,-0.13329773,-0.24852961
0.4487676,-0.5152081,0.92655087,-0.031363335,-0.29865536,-0.9352728,0.18731268,2.2836063,-2.9979262,-0.92045397,-0.54268163,-1.8550367,-1.2923793,2.2609758,-3.2532258,-0.623684,-0.60731024,-1.8316325,-1.2666353,0.4487676,-0.5152081,0.92655087,0.45408934,-0.47829708,1.0193369
0.1150078,0.38751763,-0.2428866,-0.84496427,0.12694752,0.19390371,0.48199695,1.3077312,-5.7369385,0.22552538,-5.1514683,-4.411374,0.8219541,1.3596427,-5.917237,0.35631528,-5.0814085,-4.428645,0.8743503,0.1150078,0.38751763,-0.2428866,0.13553849,0.3473722,-0.33214375
-0.012585547,-0.42215943,1.2977085,-0.062250283,-0.9875681,-0.14002211,0.035042945,1.772305,2.5116868,2.137377,-2.9627976,-1.6458884,-3.0580118,1.7908137,2.2367449,2.1670837,-2.7099543,-1.6206448,-3.0960944,-0.012585547,-0.42215943,1.2977085,-0.007407372,-0.4088828,1.396688
-0.46247932,-0.3894313,0.73903835,-0.3450092,-0.90926546,0.09199537,-0.21387342,-2.1483886,0.837511,-0.8764146,-2.0450776,-4.0259657,-2.9527986,-2.0646243,0.60772747,-0.27771938,-2.4576738,-4.0602136,-3.0379384,-0.46247932,-0.3894313,0.73903835,-0.49502504,-0.32275525,0.80608374
0.73242486,0.43362027,0.5216986,0.6403724,-0.61184996,-0.40804604,0.22149773,4.438462,3.2067215,-0.32991758,-3.069217,-5.9141607,3.5746796,4.5599475,3.1000984,-0.109189,-3.1233904,-5.8194065,3.511483,0.73242486,0.43362027,0.5216986,0.8117898,0.37333414,0.5298709
-0.15805204,0.18912455,0.454415,0.31815252,0.25844476,0.5739635,0.70890844,-5.362737,-0.8123933,1.8170447,-1.1964374,-1.3544115,0.034255505,-5.370581,-0.7356876,1.5100678,-0.98694533,-1.3862165,0.034304507,-0.15805204,0.18912455,0.454415,-0.23121637,0.124192,0.43366057
0.4654558,0.5998347,1.0547405,-0.08417056,-0.54226255,-0.5624831,0.6184492,0.40464702,-1.9712739,1.9977963,6.000816,1.0638953,-3.914699,0.07476767,-2.3223407,2.2091966,6.067943,0.74355686,-3.798705,0.4654558,0.5998347,1.0547405,0.52305925,0.67853665,1.0768278
0.23019868,-0.8868268,0.8166262,-0.108439855,-0.33433253,0.234529,0.9063436,1.623641,4.0745635,-0.6896166,-1.3225636,-4.010603,3.1283066,1.5582594,4.17989,-0.67765635,-1.439186,-4.0190105,3.0960407,0.23019868,-0.8868268,0.8166262,0.29588917,-0.9220886,0.7499826
-0.13343567,0.07102708,1.1133537,0.73402244,-0.5514997,0.3884014,0.07876189,-5.182675,-0.021121051,-1.367357,-1.842181,1.5341573,5.5660243,-5.1895475,-0.11903061,-0.9971876,-2.1132078,1.5400892,5.556989,-0.13343567,0.07102708,1.1133537,-0.1817673,-0.016053803,1.1043553
0.79338145,-0.40825444,0.3039188,-0.79805636,-0.49196434,0.13608526,0.32024667,-3.946741,2.879838,0.28890058,-1.8440181,-3.6613312,-4.8895755,-4.0422993,3.0901392,0.008440029,-1.8593123,-3.6858292,-5.0099907,0.79338145,-0.40825444,0.3039188,0.84661216,-0.33844757,0.25602844
-0.14387819,-0.3079602,1.1341306,0.0048736236,0.7760661,-0.10478507,0.62186635,2.5435176,-2.9837663,1.1880016,1.5275289,-5.1452503,-1.5777977,2.6334095,-2.9620123,0.9646057,1.7489951,-5.070657,-1.608661,-0.14387819,-0.3079602,1.1341306,-0.24029793,-0.29417127,1.1567823
-0.47742325,0.34572163,1.0639231,-0.02553915,-0.303975,-0.8069418,0.50575876,0.31776515,-3.7835183,1.7225969,-1.8431375,-0.7847984,0.18251109,0.40307054,-3.7875779,1.502475,-1.530276,-0.88440347,0.096532054,-0.47742325,0.34572163,1.0639231,-0.45079738,0.42889786,1.1126343
-0.21435197,0.6836935,0.21017943,-0.21756737,-0.03933405,-0.43515,0.8727896,-0.7086861,-2.3527918,-2.1266134,3.6715412,5.2430496,3.2990565,-0.49697405,-2.158466,-2.3776999,3.643938,5.38631,3.453449,-0.21435197,0.6836935,0.21017943,-0.22642079,0.761364,0.14835997
0.14305462,-0.22889753,1.2011707,-0.052135672,0.17212662,0.84997123,0.49517995,0.21855919,0.13818648,-1.9837909,2.9414742,-2.4944534,0.7004844,0.558353,0.18266746,-1.8629627,2.449733,-2.3244734,0.28255886,0.14305462,-0.22889753,1.2011707,0.13487065,-0.31487006,1.2515864
-0.19205236,-0.19837958,0.33352178,-0.14662963,0.5603205,0.5925131,0.55988294,-5.4830294,-6.151358,2.0393915,-1.8499266,-1.8392661,-0.9291502,-5.442993,-6.189078,1.7953814,-1.5727603,-1.7817471,-0.916651,-0.19205236,-0.19837958,0.33352178,-0.23741916,-0.2811591,0.36652794
-0.008033524,0.5982632,0.6221683,-0.6857285,-0.33527002,-0.5521414,-0.3354256,0.6867785,-0.67679995,1.0349951,-0.5662504,-0.8130648,0.69567686,0.5818029,-0.5686558,0.7536448,-0.4061343,-0.8869902,0.710294,-0.008033524,0.5982632,0.6221683,-0.106248975,0.6072036,0.6056215
-0.105059125,0.058600456,1.4872476,0.47264272,-0.7818715,-0.20105906,0.35335687,5.8669014,-2.1350155,-0.36771908,-0.93749094,4.45819,5.821046,5.8363004,-2.4293985,-0.010918036,-1.0572519,4.49529,5.813528,-0.105059125,0.058600456,1.4872476,-0.03079737,-0.001099599,1.5175972
-0.3944725,0.255766,0.94534034,0.116906896,0.9077707,0.011244642,-0.40268934,2.7357788,5.8998246,1.1261591,3.2320642,-4.2483797,-1.3410035,2.8299408,6.1559315,0.72818905,3.3501923,-4.2618423,-1.4158493,-0.3944725,0.255766,0.94534034,-0.32162553,0.27789655,1.0101752
0.44355208,0.29376182,0.0745297,0.6405785,0.49483773,0.40549988,-0.42469355,3.0519652,3.0954862,-1.5051374,5.536372,-3.4287136,-4.1859202,2.8795805,3.1753576,-1.3995426,5.081093,-3.574296,-4.4785686,0.44355208,0.29376182,0.0745297,0.43363205,0.39160094,0.056388605
-0.5668561,0.06727089,0.84371746,0.61682594,-0.6183616,0.39627865,-0.2830512,-4.6410933,5.0370045,2.302467,2.185844,0.49810186,6.072671,-4.8904386,5.116216,2.265228,2.1458278,0.7320165,6.0847464,-0.5668561,0.06727089,0.84371746,-0.65074867,0.013420031,0.85159904
-0.62969726,-0.08682654,0.5667593,0.70518875,0.31524727,0.16207136,0.6140528,3.4060612,-1.6375592,2.2364411,3.494929,-2.017439,-2.8722317,3.4396572,-1.8989352,2.194762,3.8077247,-1.9840032,-2.843129,-0.62969726,-0.08682654,0.5667593,-0.6912711,-0.062268846,0.49188888
0.78256404,-0.24313939,0.6037222,-0.17748182,0.2574907,0.9053466,-0.28730875,-3.6383004,-3.290563,-0.9275974,-0.75783044,-2.215517,4.5665016,-3.7299023,-3.4762285,-0.7399627,-0.7165616,-2.2431042,4.6633162,0.78256404,-0.24313939,0.6037222,0.82949644,-0.20025657,0.680913
-0.28794202,0.6503109,0.7298427,0.13595589,-0.35261673,-0.56758815,0.7314514,2.5004768,0.3792417,-0.89397746,2.9287684,3.0032957,-1.0949252,2.6368551,0.2730998,-0.7442986,3.0894904,2.8590698,-0.88106185,-0.28794202,0.6503109,0.7298427,-0.22092423,0.7237554,0.71914166
-0.10258659,-0.102934495,0.02261738,-0.5908846,0.07960606,-0.71600074,0.36312693,5.246962,0.41278526,1.0221759,-1.3892804,-2.167866,-4.007239,5.3582435,0.43571597,0.7368006,-1.1697323,-2.0624752,-4.027235,-0.10258659,-0.102934495,0.02261738,-0.19298278,-0.060342256,0.026416222
-0.50047606,-0.390644,0.786492,0.055093247,-0.91771084,0.21156998,-0.3316771,-2.3091993,5.837235,2.1188126,-2.7702925,2.0882049,3.5540414,-2.1982553,6.074174,2.0325742,-2.978853,2.1262102,3.4385536,-0.50047606,-0.390644,0.786492,-0.56368405,-0.38672137,0.863883
-0.35605693,-0.5621111,0.99802125,0.16079201,-0.85478383,-0.48343733,-0.09888799,-5.1814528,-2.371825,-2.0844588,5.679823,-1.7168446,-1.664981,-5.166574,-2.6052744,-2.1144643,5.930487,-1.6746527,-1.6810557,-0.35605693,-0.5621111,0.99802125,-0.35741594,-0.5991608,1.0908947
0.3460387,-0.44188097,1.2190115,0.41499808,0.77224654,-0.23645745,-0.4189269,-1.8845675,-1.0494329,1.1552616,3.4285784,0.8200944,-2.8905382,-1.9676006,-0.86637974,0.96536744,3.4368463,0.9159676,-2.8943794,0.3460387,-0.44188097,1.2190115,0.43036756,-0.39759648,1.2494669
0.4281646,-0.46733007,1.0908954,0.12891018,0.86284673,-0.48425832,0.06611789,2.3626328,-2.5753248,-1.3902698,-0.55251145,4.501197,1.3508494,2.3452518,-2.783015,-1.2479256,-0.48983863,4.5188456,1.3534062,0.4281646,-0.46733007,1.0908954,0.42923984,-0.4386805,1.1866975
0.017521055,0.50767535,0.2822265,-0.108134314,0.31448936,-0.25060782,-0.909175,1.673666,0.45232427,-1.0072455,-0.30856478,-2.0090225,0.4968991,1.7387516,0.18312763,-0.62853026,-0.41422307,-1.9840896,0.541376,0.017521055,0.50767535,0.2822265,0.06928637,0.45530468,0.21456808
-0.59545755,0.47906184,0.73569447,-0.49026752,-0.2871821,-0.3909172,0.72411877,0.1136844,3.1957839,0.74940753,0.53340596,-0.56871533,-2.52096,0.2526748,3.261098,0.70850235,0.31642553,-0.61402684,-2.2901099,-0.59545755,0.47906184,0.73569447,-0.59219754,0.56383514,0.68275243
0.17113526,0.07041924,-0.03290072,-0.69087887,-0.30653456,0.65114886,-0.06876168,-2.915042,-5.7667994,1.2948589,-1.8122115,-1.9070084,5.0717983,-2.8440459,-5.7853327,1.0488751,-1.5465348,-1.8291664,5.068436,0.17113526,0.07041924,-0.03290072,0.25689268,0.1217297,-0.02930907
-0.060671326,-0.7567567,1.0688757,-0.7146621,0.39264292,-0.46931022,-0.33887693,4.7362285,-0.13214844,-1.7364159,5.2906713,4.261291,-1.1949995,4.801177,-0.27210352,-1.8131078,5.507033,4.2499433,-1.1788238,-0.060671326,-0.7567567,1.0688757,-0.10113944,-0.8446858,1.0437597
-0.24353951,0.2513238,0.96981287,0.29020008,-0.82258564,-0.45501336,-0.17916352,5.318724,3.732643,-1.7574867,-6.112006,4.309356,0.52269644,5.2790856,3.4953191,-1.4636052,-6.1417527,4.357946,0.5631956,-0.24353951,0.2513238,0.96981287,-0.246606,0.18727656,1.0465498
-0.61487997,0.5836137,0.8289776,-0.62546873,-0.14236918,-0.54695606,0.53792095,-3.9761848,4.8065095,1.4600836,0.38660437,-4.5700016,-4.208524,-3.960918,4.5996428,1.5601642,0.4956346,-4.571505,-4.203913,-0.61487997,0.5836137,0.8289776,-0.66798407,0.660267,0.79286355
-0.596999,-0.43739846,0.01025617,-0.38718212,0.26382133,-0.7119876,-0.5230315,0.23894013,-3.7287786,-0.82760715,4.8315644,-2.6002789,1.2300646,0.023866287,-3.7188814,-0.89566064,4.9548883,-2.8111827,1.3163048,-0.596999,-0.43739846,0.01025617,-0.6245354,-0.53230625,0.025561787
0.36257005,-0.092613935,0.48029807,0.5199905,0.84221256,0.025495753,-0.14013526,-1.3354414,-0.11004932,1.1695997,5.6944294,-1.1511685,-6.1677947,-1.4305779,0.051531047,0.808754,5.8535213,-1.200128,-6.1417365,0.36257005,-0.092613935,0.48029807,0.38352326,-0.0043108626,0.5222925
0.43641558,0.095283486,0.29421136,0.26988626,0.4313276,0.14803776,-0.8480582,-1.7625519,-0.4120434,2.5437648,0.24145795,0.9707497,-1.0685538,-1.9634966,-0.72341514,2.545042,0.6223948,1.1595192,-1.2095034,0.43641558,0.095283486,0.29421136,0.5015831,0.1436743,0.23580311
0.18760669,0.033068586,0.13401951,0.7349482,-0.6551476,-0.14988583,0.09037115,-1.3312715,2.7167726,-0.91026086,-4.811424,-1.4542013,-6.179883,-1.3131154,2.5625024,-0.3968734,-5.1877117,-1.4745955,-6.1685505,0.18760669,0.033068586,0.13401951,0.22147965,-0.06052226,0.124356344
-0.0061199986,0.6305398,0.5578275,0.9537318,0.12718834,-0.242713,0.123730496,1.7363837,-1.4570541,1.8209171,4.084707,-2.0660799,-3.3015614,1.8287804,-1.5320975,1.6638576,4.36657,-2.0845387,-3.2004135,-0.0061199986,0.6305398,0.5578275,0.037029207,0.6608067,0.47284478
-0.078152955,0.70153856,0.90482354,0.6564296,0.7229266,0.104955025,-0.18831286,1.6244149,-1.9619895,2.1787703,-0.28605944,1.7624286,0.41103113,1.6525266,-2.2501996,2.3237057,-0.1428826,1.7646616,0.41391057,-0.078152955,0.70153856,0.90482354,-0.0647048,0.8004015,0.91155124
0.11954321,0.05102852,0.2897157,0.2552847,0.4448733,-0.3920192,0.7637005,-1.0597208,-0.14867681,1.4988719,1.4835851,1.5784441,-5.1358194,-1.0545876,-0.13765444,1.2250359,1.7443817,1.5780867,-5.112207,0.11954321,0.05102852,0.2897157,0.07160852,0.13361944,0.26003397
0.07059929,-0.09072031,0.9631243,-0.40038127,0.06783131,-0.657487,-0.6346689,0.59884727,-1.5384836,1.4341093,-0.04977093,-2.1017358,0.59489083,0.6749109,-1.2746899,1.074866,0.039662804,-1.9991593,0.5537477,0.07059929,-0.09072031,0.9631243,0.026560275,-0.1796093,0.9505023
-0.16081543,0.040345527,1.4462143,-0.103076726,-0.910141,-0.18824397,-0.35437655,4.0704613,5.6554117,-2.1528945,-1.4682038,-2.2050757,-5.0809584,3.752539,5.3995285,-2.3428726,-0.8612286,-2.025641,-4.7657933,-0.16081543,0.040345527,1.4462143,-0.22920267,0.04576655,1.5189729
-0.6802072,0.16423994,0.6980741,0.45757186,0.86785436,0.19235538,0.02135915,3.3001006,-0.395845,1.6969141,3.5907402,-3.74302,5.0912924,3.3980575,-0.13694477,1.4655839,3.3887038,-3.7986631,4.88537,-0.6802072,0.16423994,0.6980741,-0.70151776,0.24283937,0.75610846
0.050136313,0.23034556,0.84659415,0.81094825,-0.0907558,-0.043196563,-0.5764203,4.9249477,3.9217367,1.0367526,-3.5742998,-4.638591,-1.6995294,4.8973665,4.264749,0.34212235,-3.2202072,-4.6411934,-1.7062469,0.050136313,0.23034556,0.84659415,0.046679653,0.21064603,0.74861467
0.37767926,0.59978193,0.9025854,-0.68315166,-0.66267014,-0.004928976,-0.3068351,0.04773165,-1.1838086,1.1737813,-0.32477602,-0.40163842,-0.10217289,-0.107820034,-1.1235074,1.0458274,-0.18211724,-0.53694475,-0.1924026,0.37767926,0.59978193,0.9025854,0.3363397,0.6900203,0.8904166
0.7714126,-0.410772,0.8108161,-0.7513787,-0.06730046,0.6390713,-0.14996183,-1.2645228,-0.6384408,0.7150387,1.6158526,0.18425633,-3.353448,-1.4257662,-0.7987407,1.0566868,1.9080281,0.23229548,-3.8453684,0.7714126,-0.410772,0.8108161,0.865431,-0.38149112,0.79340446
0.09326422,0.40313688,0.44914597,0.9723559,0.2322012,-0.004148967,-0.024278345,0.38257957,-2.515437,2.6512103,-1.9221034,-1.1365708,2.0433831,0.23865859,-2.6344798,2.3912268,-1.4745836,-1.1550565,1.9016579,0.09326422,0.40313688,0.44914597,0.09519857,0.44827318,0.3599329
-0.31387725,-0.31248194,0.20701712,-0.20891666,-0.52892375,0.2396826,-0.78685814,4.5632014,-0.3709849,1.5847595,-1.8161204,-2.5258412,4.0398717,4.669062,-0.30183482,1.2462875,-1.4048806,-2.403228,4.172252,-0.31387725,-0.31248194,0.20701712,-0.3871001,-0.2526625,0.17445874
0.08899925,-0.6420848,1.1002022,0.44602638,0.18217668,-0.4940352,-0.72374123,-2.474019,-1.0661513,0.42990497,2.6622438,0.50647795,-2.2830484,-2.6758492,-1.088546,0.40655658,2.9659135,0.61135393,-2.5870218,0.08899925,-0.6420848,1.1002022,0.15943955,-0.69734436,1.0556539
-0.35095254,0.00067276467,0.2744816,0.6816959,-0.5974531,-0.001652477,-0.4223006,1.5174417,6.1762667,1.6680391,-5.0202446,1.105317,-5.5766997,1.4115734,6.0584135,1.5981511,-4.8709073,1.1970192,-5.5912504,-0.35095254,0.00067276467,0.2744816,-0.4011882,-0.080923066,0.24587217
0.14887604,-0.6310576,0.29956284,-0.034427,0.02406272,-0.056095045,0.99754155,-1.5457675,-0.90016747,1.4363399,4.307786,4.70258,-3.184428,-1.5301205,-0.9967906,1.3237582,4.4961066,4.694484,-3.1890807,0.14887604,-0.6310576,0.29956284,0.1436891,-0.6200319,0.20030798
0.073925875,-0.045377355,0.6559192,0.25151977,0.4366048,-0.8621302,0.053343963,-4.5883107,3.037565,-1.8625417,3.817321,-4.2814436,4.015154,-4.8231506,2.9409788,-1.5566959,3.7297938,-4.343044,4.2631125,0.073925875,-0.045377355,0.6559192,0.11263639,-0.014216521,0.74269766
-0.00096104405,-0.34829977,1.0740027,0.1470566,0.4878121,-0.70850015,-0.4883045,2.9556067,-5.9995728,-1.964647,2.2236514,-1.1296451,0.08943325,2.8667378,-5.926465,-1.8234508,1.9549655,-1.2174993,0.1285655,-0.00096104405,-0.34829977,1.0740027,0.06751705,-0.40314534,1.1219894
0.8441424,-0.02244251,0.46855906,0.0067112143,-0.86111337,0.009316339,0.5082833,-0.39894032,0.2519382,1.2686124,-5.1598,-1.2140635,-1.4094952,-0.481407,0.37616506,1.3397163,-5.3671627,-1.1541635,-1.3533105,0.8441424,-0.02244251,0.46855906,0.9316678,-0.024545401,0.5168797
0.47686008,0.08674251,-0.09591256,-0.8193444,0.34089845,-0.106645934,-0.4484302,-5.7587695,0.19128846,0.7808296,0.8316009,2.2322109,-1.9766142,-5.6530766,0.076542474,0.8030822,0.99649185,2.198306,-1.8515365,0.47686008,0.08674251,-0.09591256,0.48995796,0.021315215,-0.17039554
-0.49265635,-0.020670079,0.39008692,0.58682823,0.15981767,0.46091086,-0.6462601,-5.110011,-2.09037,-2.028113,4.814982,-5.406257,1.6137797,-4.9977193,-2.07641,-1.8428992,4.5627046,-5.315996,1.6790094,-0.49265635,-0.020670079,0.39008692,-0.5260947,0.057660688,0.33768302
0.13810903,0.08779723,0.5456039,-0.402054,0.4786654,-0.33403453,-0.70544523,1.4284458,-1.173384,1.9143913,5.1651154,4.155698,-5.0085025,1.5116507,-1.0557013,1.5975324,5.3660703,4.2413797,-4.984423,0.13810903,0.08779723,0.5456039,0.17878349,0.0021787516,0.51374376
-0.38582674,-0.17868352,1.2325608,0.17282675,0.45411742,0.6812717,0.54751915,-6.0295725,-0.65507627,-1.828428,-3.4194071,4.2771473,-0.12957741,-5.9680743,-0.39725563,-1.89617,-3.6204827,4.3966265,-0.15474454,-0.38582674,-0.17868352,1.2325608,-0.45910272,-0.23758864,1.2666315
0.4021783,-0.076848805,-0.3219452,0.011887939,0.07977164,-0.10596318,-0.9910938,-0.35518724,0.22705838,1.3707786,6.047427,1.7032664,-5.0631933,-0.27986595,0.017441677,1.6620138,5.960656,1.7346804,-5.0329957,0.4021783,-0.076848805,-0.3219452,0.41824245,-0.09766303,-0.41842684
0.16765109,0.65640706,0.76300776,0.043257676,-0.6656142,0.4378116,-0.6028329,0.4381907,-0.50537735,0.91387033,0.06771546,-0.64714706,-2.6057115,0.3306639,-0.35722715,0.63582224,0.114998475,-0.7411258,-2.5137727,0.16765109,0.65640706,0.76300776,0.08361252,0.70343393,0.78995204
-0.13631888,0.035785016,1.489662,-0.261062,-0.16571425,-0.9433161,-0.12058272,4.789679,-2.8850641,1.901564,5.8123918,2.1488132,-0.39047718,4.4768534,-3.119599,2.0055802,6.1270843,2.0587146,-0.03472692,-0.13631888,0.035785016,1.489662,-0.18956812,0.021687828,1.5731235
-0.057388034,-0.028058497,-0.07491079,0.8038901,-0.36680216,0.09989998,0.4574242,-0.7222091,2.9900773,-1.5095776,-3.7372215,4.307637,5.9511204,-0.83202547,3.1566746,-1.5073547,-3.9347246,4.374207,5.850124,-0.057388034,-0.028058497,-0.07491079,-0.03989292,-0.09617155,-0.14600602
-0.0049929274,-0.30518824,0.77255577,0.6113048,0.5062984,0.41208416,0.44738686,-0.9588107,-1.0582688,1.2789427,-0.42586735,-2.2683167,-0.0806642,-0.88127625,-0.80062497,0.81474614,-0.20465513,-2.169815,-0.069257624,-0.0049929274,-0.30518824,0.77255577,-0.10067698,-0.28015992,0.7577861
0.2589065,-0.1322502,0.28192613,-0.04108998,0.298376,-0.7295103,-0.6140831,-5.4730334,-6.2098937,1.6521468,5.053521,3.7125318,0.92887276,-5.220377,-6.2322364,1.5143504,5.0394793,3.904967,0.69055074,0.2589065,-0.1322502,0.28192613,0.28955692,-0.22429825,0.30616882
0.56724024,-0.5765505,0.86308134,0.5661587,-0.70605075,0.42080203,0.062308587,5.899294,0.5249992,-1.1278567,5.074913,2.778087,0.6679681,6.0201077,0.5745015,-1.0703542,4.7791686,2.7512443,0.4653628,0.56724024,-0.5765505,0.86308134,0.5283907,-0.6617418,0.89819777
0.08926311,-0.21060391,-0.031730097,0.89312875,-0.07089571,0.36660552,0.25078914,-0.49357757,-0.00061745074,1.485351,0.5889542,-4.1101084,-2.426028,-0.37035453,-0.14068453,1.469198,0.8092102,-4.1806316,-2.334504,0.08926311,-0.21060391,-0.031730097,0.027333898,-0.24165584,-0.10384493
0.053597156,-0.47087303,0.051667392,0.3923205,0.14412956,0.5000116,0.7584851,5.5046587,-0.023002993,1.5008568,0.061621234,-3.6255164,1.7361827,5.7463536,-0.048139866,1.4695586,0.49772763,-3.6610656,2.1752892,0.053597156,-0.47087303,0.051667392,-0.007499836,-0.53541434,0.0058243866
0.7769231,-0.45807692,0.41416374,-0.73424625,0.4834637,0.39252445,0.27031434,-0.22927935,-0.28097227,1.4282405,2.3792639,3.737673,1.3533993,-0.09615469,-0.45332733,1.6522264,2.5059147,3.6450977,1.5611688,0.7769231,-0.45807692,0.41416374,0.80842763,-0.5502942,0.39172626
0.27225816,-0.47429848,1.3059943,0.05486801,-0.89748394,0.2698055,-0.34455344,2.5979033,-3.31375,0.9850395,4.5656166,4.984272,-4.8519435,2.6304636,-3.3123944,0.740043,4.8232574,4.965988,-4.8915997,0.27225816,-0.47429848,1.3059943,0.20745118,-0.46555462,1.3816488
0.7995484,-0.038970456,0.39336148,0.25650316,0.1632172,0.352239,-0.8851519,2.8310606,2.8452487,0.8749347,3.9631085,2.347578,3.7658012,2.7548797,3.0546875,0.6496018,3.9192665,2.3176293,3.6646738,0.7995484,-0.038970456,0.39336148,0.8103727,0.0317597,0.3235039
-0.53613293,0.6611271,0.55364585,0.31797156,0.7788075,-0.036467213,0.53946555,1.5821966,6.081806,1.7219836,-5.033671,5.655356,-3.921056,1.3594174,6.1062307,1.9046966,-5.34676,5.84155,-3.7976813,-0.53613293,0.6611271,0.55364585,-0.61784184,0.71458936,0.57522005
0.19491121,0.038406808,0.72090155,-0.34343424,0.6736034,-0.5068159,0.41406405,6.1881824,5.7864857,1.2205074,-0.28213462,-1.723105,3.4357758,6.211319,6.058967,0.71154654,-0.06341023,-1.7058084,3.3999028,0.19491121,0.038406808,0.72090155,0.104316644,0.034109965,0.76302236
-0.86408013,-0.2361077,0.29613194,-0.119007066,-0.5587999,0.08215199,-0.8165972,3.5967288,-0.54833806,1.5030944,-0.4657556,2.2415512,-1.2474247,3.7401004,-0.6580724,1.6472722,-0.43547922,2.3766823,-1.149126,-0.86408013,-0.2361077,0.29613194,-0.9533877,-0.20939046,0.2599332
0.22582714,-0.24329132,0.42776507,-0.7514475,-0.14630921,-0.56882703,-0.3005928,-0.46188828,5.67691,1.2452976,5.274924,-2.11253,-5.534103,-0.39134714,5.8386955,0.80597436,5.5562615,-2.0528893,-5.5283833,0.22582714,-0.24329132,0.42776507,0.1315425,-0.25549963,0.39675918
-0.66857743,-0.0011089577,-0.06947976,0.6598058,-0.14472793,0.5278715,-0.51484156,-2.982825,0.10828457,1.670433,-1.2620711,2.0780196,2.7634602,-2.794874,0.10525786,1.8474145,-1.4275908,2.2257798,2.8478866,-0.66857743,-0.0011089577,-0.06947976,-0.75313836,0.03414661,-0.10956087
0.56076115,-0.7944665,0.6082729,-0.25311902,-0.04518513,0.88334405,0.39190856,-1.2009828,-0.3205211,1.6497823,-1.9437865,1.359192,-0.37823012,-1.2390082,-0.20950843,1.7912366,-2.200621,1.3330779,-0.35700557,0.56076115,-0.7944665,0.6082729,0.60902107,-0.86141706,0.6647406
-0.3115823,0.5019044,0.24357341,0.16725421,-0.45101753,-0.10159769,-0.87079686,1.2709364,-0.5918454,1.5525126,-1.7568625,-0.87860006,-0.9919233,1.1866406,-0.634024,1.3962692,-1.5209651,-0.945221,-1.0570757,-0.3115823,0.5019044,0.24357341,-0.3867327,0.46912333,0.1863212
-0.9381115,0.30542326,0.35682133,-0.9065847,-0.026450075,-0.41127893,0.09085304,2.5030615,-0.6900746,1.6765212,-3.3452713,5.085547,-1.8629041,2.4606059,-0.93019146,1.9214863,-3.3386154,5.097172,-1.8990953,-0.9381115,0.30542326,0.35682133,-1.0122027,0.3176923,0.2907913
-0.0570957,-0.8725812,0.5367053,-0.4149064,0.48329523,-0.66281575,-0.39364153,4.4452415,-0.013307518,1.5559574,-5.036501,-1.4856668,-1.6705197,4.431507,0.061989557,1.7422853,-5.273854,-1.4790461,-1.6608692,-0.0570957,-0.8725812,0.5367053,-0.07404799,-0.964868,0.5712851
-0.3348562,0.3237046,1.2999139,-0.112095,0.7031913,-0.3458628,0.611012,0.48059356,-0.60160774,-1.2510365,-4.120658,-0.87442446,3.8640418,0.11601342,-0.56063646,-1.2841902,-4.1948996,-1.1734625,3.9823837,-0.3348562,0.3237046,1.2999139,-0.42854178,0.35020503,1.3227338
0.40505865,0.025226206,1.1984407,0.2695454,0.6797365,0.42659125,-0.5322814,2.3157496,4.909274,-1.991469,-0.6563085,-2.7449296,3.9684334,2.1115923,4.6346483,-1.8712857,-0.20102087,-2.5709186,4.29611,0.40505865,0.025226206,1.1984407,0.45442373,0.107283495,1.227245
0.4989375,-0.743399,0.5768988,0.59793955,-0.55148596,-0.5769944,-0.07354617,-3.9024222,-2.9608612,-1.7093892,1.8066266,-4.8367376,0.89586604,-3.874715,-3.0449004,-1.8864273,2.0697238,-4.8582125,0.88852125,0.4989375,-0.743399,0.5768988,0.5598271,-0.81783724,0.6043107
0.46998957,-0.30720827,0.48096666,-0.23719162,0.39514032,0.36445937,0.80918086,3.4368837,3.5074203,-0.90129036,-5.158239,-0.9133521,1.6413553,3.5184095,3.352268,-0.48401845,-5.471803,-0.98284376,1.7090362,0.46998957,-0.30720827,0.48096666,0.42333093,-0.3849358,0.43875995
0.30869016,-0.0043984037,0.557131,0.44613868,0.3741821,-0.19470859,0.78932667,-3.4465678,-3.4711287,1.196118,-0.010265577,-2.0469255,-4.2058725,-3.5449808,-3.2443323,0.78096133,0.11515078,-2.0121384,-4.2695527,0.30869016,-0.0043984037,0.557131,0.2669932,0.059726756,0.49271572
-0.17986697,0.48136893,-0.009268851,-0.7568437,-0.05418776,0.2823074,0.5869871,-4.2868404,6.033457,1.2255311,-2.0729,-1.9233768,-1.3074732,-4.247807,5.9355483,1.1320977,-1.8783517,-1.897618,-1.2686843,-0.17986697,0.48136893,-0.009268851,-0.13077295,0.4564291,-0.0927421
0.2813881,0.32704297,0.9916648,0.41251168,0.7354003,-0.16568437,-0.51143837,0.10108325,-0.97508657,-2.143162,-3.3079805,1.2248962,-5.5631604,0.26405457,-1.175769,-2.0835106,-3.1619005,1.3830026,-5.589392,0.2813881,0.32704297,0.9916648,0.37027985,0.3707677,1.0053178
0.4399786,-0.044086058,0.8483842,-0.57447875,0.6185747,-0.2582284,-0.46974212,0.6908733,-1.3952396,1.5931126,5.7705693,3.5429156,-4.5123215,0.8567657,-1.1892759,1.3262718,5.961446,3.7089493,-4.379001,0.4399786,-0.044086058,0.8483842,0.4684234,-0.13941781,0.8382475
0.28942257,-0.94907814,0.47530884,-0.747044,0.6137578,0.23043463,0.11012032,-1.4632778,-0.39616415,1.7419884,1.9359794,-1.4635409,0.48878285,-1.4752833,-0.46049094,2.0306923,1.7135068,-1.460865,0.49125618,0.28942257,-0.94907814,0.47530884,0.31033412,-1.0458541,0.4612686
0.09558312,-0.07136708,0.453557,-0.16097425,0.83988136,0.052144367,-0.5157204,-6.0013523,3.3100932,-1.9025089,4.4001455,-4.2266264,-4.579391,-6.0449734,3.1993515,-1.5600655,4.1707177,-4.316793,-4.578993,0.09558312,-0.07136708,0.453557,0.18389069,-0.093028545,0.49518096
0.2542792,-0.09568175,0.6466724,-0.5091216,-0.38551548,0.28339985,-0.7154422,-1.1080624,-1.1995804,1.3510386,5.5386267,4.8235035,-1.5314085,-1.1401716,-0.97921485,0.8956605,5.7905707,4.8110647,-1.5328838,0.2542792,-0.09568175,0.6466724,0.2279734,-0.015875654,0.59246
0.31807855,-0.016281182,1.1285301,0.47827274,0.14944547,-0.56330246,0.6569715,2.2179549,-2.6900551,0.7640165,5.6476817,3.8233745,1.3758113,2.0284991,-2.5982091,0.45732665,5.716066,3.9343436,1.2025112,0.31807855,-0.016281182,1.1285301,0.3523247,0.07202869,1.0964588
0.43596455,-0.04951615,1.3202425,0.34422967,0.7387974,0.57802016,0.039711613,2.905194,-2.196858,-1.2158077,-0.65437967,-1.956745,3.2644105,2.9084775,-2.3887918,-1.1306895,-0.5773321,-1.8937439,3.2546089,0.43596455,-0.04951615,1.3202425,0.39030245,-0.0032437746,1.3962283
0.07663005,0.10946167,1.0226388,-0.14135852,0.4991759,0.8540567,0.037792567,0.93662673,5.551151,2.4582806,6.0803037,4.4378505,-0.43068326,1.114658,5.8276086,2.2719524,5.9402537,4.4467726,-0.60559064,0.07663005,0.10946167,1.0226388,0.09700266,0.08889372,1.1183567
-0.27643475,-0.38068607,-0.01782451,-0.46966738,0.13091004,-0.3403374,0.8040184,4.4522247,6.04612,1.6475242,3.6530957,-2.2401898,-4.337031,4.5206127,5.8607163,1.6492276,3.879685,-2.1726885,-4.278834,-0.27643475,-0.38068607,-0.01782451,-0.32945463,-0.3382554,-0.091231115
0.12112434,0.073387206,1.3362451,0.3096681,0.39030334,-0.6990296,0.5129586,4.641195,-0.1281385,-1.6089821,-1.1187437,1.6069705,1.0635879,4.6500263,-0.048837114,-1.4489852,-1.3564057,1.5993254,1.0630412,0.12112434,0.073387206,1.3362451,0.12437589,0.16927476,1.3644408
0.5665985,0.037731804,1.147858,0.6284134,0.1431134,-0.74115473,0.18789582,-1.5161692,5.954762,-1.6929848,-3.8643188,5.8220463,4.239819,-1.8915386,5.960534,-1.6995726,-4.04143,5.446798,4.460491,0.5665985,0.037731804,1.147858,0.6543707,0.08357065,1.1618164
0.29517487,-0.5536553,0.23928499,-0.29623553,0.7693776,0.07932537,-0.56036603,-2.2882085,0.073085934,1.4880246,5.2393937,-0.37627426,-4.609521,-2.521271,0.080049016,1.4992592,5.011293,-0.5859183,-4.362332,0.29517487,-0.5536553,0.23928499,0.38610128,-0.5903485,0.25893188
-0.32639414,-0.2411062,0.5184475,-0.4373935,0.38895592,0.42588776,0.68994194,2.0583978,0.75998837,-2.400378,-5.026362,-0.9817906,-1.0726107,1.797597,0.6078125,-2.301378,-4.9673514,-1.1562997,-1.1392337,-0.32639414,-0.2411062,0.5184475,-0.34280944,-0.3338991,0.48498094
-0.1350697,0.4590514,1.0810174,-0.40769473,0.20036182,0.884371,-0.10736884,2.2207508,-0.79714036,1.4643806,-2.8920717,-4.0374274,1.7763278,2.3146782,-0.6096313,1.348572,-2.9605622,-4.0913887,1.7218472,-0.1350697,0.4590514,1.0810174,-0.0586565,0.4617049,1.1454688
-0.8033493,0.5618898,0.310477,0.014874237,0.11173045,-0.58815706,0.8008535,2.8159642,-0.03743317,0.95988464,2.777486,-2.5696175,-5.5914974,2.9355822,-0.17256941,1.189634,2.7938678,-2.6571298,-5.4635706,-0.8033493,0.5618898,0.310477,-0.81949556,0.65642774,0.28215948
-0.33002287,-0.12871124,0.74857,0.33107018,0.4329727,0.8335938,-0.08971393,4.0791087,5.993554,1.7896013,6.256499,3.9956605,-3.5309927,4.2383943,6.1610417,1.5924805,6.165905,4.0344243,-3.701008,-0.33002287,-0.12871124,0.74857,-0.37744972,-0.08508538,0.8250388
-0.62658614,-0.28071237,1.2054592,0.49874923,-0.39479855,0.55728835,-0.5336787,-2.2868347,4.6697664,1.4704664,-2.8485277,3.6575947,-6.283098,-2.0476167,4.611615,1.4765832,-2.6571975,3.4418664,-6.1325235,-0.62658614,-0.28071237,1.2054592,-0.7243147,-0.26061088,1.1987466
0.58778995,0.6334011,0.25033504,-0.90900314,0.10725311,0.3752959,0.14616083,-1.7419515,3.5558472,-1.0034612,5.0442452,-5.4798064,-2.891791,-1.6530254,3.642842,-0.97165066,4.856948,-5.4628253,-2.7834299,0.58778995,0.6334011,0.25033504,0.65288377,0.6029317,0.1808051
0.39264593,0.35659018,0.3440496,-0.49572656,-0.37435254,0.15304998,0.7685643,-1.1739075,-2.2049272,-2.2259269,2.593426,-0.72993064,2.5451853,-0.93192416,-1.9771726,-2.3194628,2.2876308,-0.83303016,2.7983472,0.39264593,0.35659018,0.3440496,0.4653629,0.37017974,0.27676243
-0.37457466,-0.20630738,1.2797598,-0.18794669,-0.6183654,0.73010737,-0.22190876,-2.4709198,5.1226034,1.7572209,-2.5479472,-4.2760935,2.240398,-2.3835735,5.334629,1.6594926,-2.709686,-4.289273,2.1271675,-0.37457466,-0.20630738,1.2797598,-0.37457454,-0.15065998,1.3628463
0.21702316,0.72125185,0.4230831,0.87729716,0.11082691,-0.3392602,-0.3208887,1.5350397,-5.8632407,-1.2927448,5.610246,-2.2988615,3.8036344,1.6016779,-6.024961,-1.2355093,5.724551,-2.2595854,3.86059,0.21702316,0.72125185,0.4230831,0.28366217,0.7189245,0.3485591
-0.55976003,-0.2729941,0.717891,-0.75619674,0.5702177,-0.30257952,0.10706938,-3.99839,-1.8804184,2.4053805,5.140436,-0.27297887,-2.8923216,-4.2984014,-1.8494211,2.2443879,5.5457726,-0.58163303,-3.191739,-0.55976003,-0.2729941,0.717891,-0.6177325,-0.3527541,0.7012315
0.13569869,0.10079361,0.7970259,0.12741242,0.6391725,0.19120264,0.7339388,-6.2423906,5.505368,1.3481494,-3.8189912,-4.634578,-4.249409,-6.2325745,5.728059,0.87700176,-3.573891,-4.6445017,-4.2579026,0.13569869,0.10079361,0.7970259,0.03700367,0.089015104,0.7860459
-0.37302616,0.7779815,0.5981874,-0.92190313,-0.28315073,-0.15929674,-0.2110565,1.668215,-0.95337284,0.88494134,-5.224487,1.2244174,-0.21256597,1.6169622,-1.0451549,0.81345665,-5.0240974,1.2150759,-0.28890678,-0.37302616,0.7779815,0.5981874,-0.41434956,0.82346493,0.51929736
-0.39572597,-0.14872557,0.14852989,0.6764355,0.22519152,0.69884676,-0.057767194,2.1373432,2.999857,-1.6968064,-1.3696781,-5.3245726,1.382073,2.2767088,2.9880054,-1.5038306,-1.5632586,-5.180133,1.373545,-0.39572597,-0.14872557,0.14852989,-0.4876692,-0.11018598,0.1563495
-0.5752239,-0.4099933,0.49767858,-0.9585357,-0.0390805,-0.25880355,0.11270678,-5.0547633,-1.841187,-1.7582072,5.207376,0.99318045,6.1665554,-5.009624,-1.7281345,-1.6215354,4.940985,1.0401219,6.2153425,-0.5752239,-0.4099933,0.49767858,-0.62395746,-0.39666748,0.41137987
-0.57842535,-0.41670588,0.7291749,-0.18098177,-0.92531,-0.15074918,-0.29718965,-4.9594865,3.339446,-1.6007034,-0.0650834,5.439894,-2.600021,-4.866427,3.1213813,-1.3868139,0.028034592,5.4042897,-2.7321234,-0.57842535,-0.41670588,0.7291749,-0.63888043,-0.39217326,0.8049597
0.50535226,0.7507581,0.77630097,-0.26719996,-0.86780536,-0.4069288,0.09963406,-2.2258093,3.367681,-1.2645744,5.2897162,4.316807,-4.806634,-2.2639062,3.2006385,-1.2209035,5.4364595,4.320148,-4.8017216,0.50535226,0.7507581,0.77630097,0.5008986,0.80524236,0.86003643
0.26949906,0.5297725,-0.0005305873,0.8274656,0.39868546,0.37183946,0.13448443,-6.093444,0.044946484,1.0885977,-1.7554379,-0.80886596,1.0367059,-6.211121,0.042487428,0.9416837,-1.5258539,-0.876795,0.9091517,0.26949906,0.5297725,-0.0005305873,0.19723879,0.58575094,-0.041087653
0.16504475,0.12453922,0.383933,-0.56098,-0.21028882,0.55745405,0.57473904,5.706221,-2.229442,-2.2193847,-1.5390692,1.442354,-0.43898624,5.7429237,-2.2415106,-1.974966,-1.7692503,1.4717305,-0.44293213,0.16504475,0.12453922,0.383933,0.2517611,0.084054664,0.35492828
0.34363693,0.58590287,0.9471584,0.68476886,0.7059287,0.08394489,0.16034192,-0.010435205,-1.2934227,1.3670917,-0.045247417,-0.35675156,-0.13830319,-0.18828446,-1.245804,1.3085604,-0.039785694,-0.5282655,-0.13014038,0.34363693,0.58590287,0.9471584,0.3095024,0.67989045,0.94823486
0.18880427,0.13751902,0.7894228,-0.12763582,-0.08347911,0.7702345,0.6192569,4.867386,2.6580095,1.456049,1.9637198,-4.8684053,-0.06471183,4.891275,2.7749057,1.0892608,2.215556,-4.8435516,-0.067887045,0.18880427,0.13751902,0.7894228,0.21880516,0.0442554,0.8094688
0.1251733,0.27941853,0.36882886,0.5495337,-0.49196804,0.46055084,-0.49383506,0.28995857,-0.3444852,1.1789013,-0.9300674,-1.3643426,3.1385174,0.25074428,-0.20411813,0.75977314,-0.6836034,-1.388844,3.128757,0.1251733,0.27941853,0.36882886,0.02596544,0.27083516,0.35965678
0.31357765,0.31503162,0.22252285,0.3556906,0.43515378,-0.15862586,0.8117655,-0.16368541,-0.65214825,1.7305917,-1.7762588,-1.0830779,-1.1419346,-0.2446124,-0.71565205,1.5914559,-1.5714159,-1.1340933,-1.1845913,0.31357765,0.31503162,0.22252285,0.25421342,0.37174106,0.16542706
-0.4245626,-0.041604955,-0.39957806,0.855391,-0.19067313,0.23602855,0.41981006,-0.2728006,2.400271,-0.94024044,0.19048825,2.1968176,-2.7601008,-0.39097115,2.658794,-1.3391063,0.24831533,2.1754072,-2.8840134,-0.4245626,-0.041604955,-0.39957806,-0.44893265,-0.094042405,-0.48116493
-0.3805462,-0.8832978,0.7211174,0.2380172,-0.055241767,0.80561066,0.5397107,3.980231,-0.45349702,1.6815373,1.5824742,5.0781894,-2.535471,3.9110377,-0.42648456,1.9241318,1.3016788,5.1280227,-2.4951384,-0.3805462,-0.8832978,0.7211174,-0.41293314,-0.97288686,0.75152946
-0.32222277,0.09077841,1.2612973,0.41022143,0.7371175,0.3773557,-0.38207164,-5.383379,-2.761015,0.69188315,1.650074,-5.080812,1.378828,-5.3265886,-2.6543522,0.2661225,1.978093,-5.028467,1.3553377,-0.32222277,0.09077841,1.2612973,-0.2968563,0.18009008,1.2984452
0.1676949,-0.08921908,0.97895736,-0.84454006,0.40580875,0.13900553,0.3205446,-1.7147251,-2.7659156,1.2541256,5.3428726,-1.4753926,-5.6575656,-1.7385129,-2.5678494,0.7477613,5.650922,-1.4898738,-5.701055,0.1676949,-0.08921908,0.97895736,0.1651581,-0.16667493,0.915758
0.017832927,-0.03941433,0.7220447,-0.20192303,-0.794729,0.3942695,0.4149512,2.8748932,5.6653323,2.0100496,-0.7636293,-1.778632,-5.474606,2.9359033,5.84755,1.7008177,-0.6462071,-1.7391106,-5.5093718,0.017832927,-0.03941433,0.7220447,0.0997101,-0.04004004,0.7794532
-0.28726268,0.09076381,0.69520104,-0.17964731,0.4566462,0.7712911,0.40535313,-0.83038527,3.4724472,-1.3977399,-2.9443877,2.1975012,4.7065973,-0.9499616,3.2823334,-1.0655864,-3.0180945,2.136328,4.8271313,-0.28726268,0.09076381,0.69520104,-0.2965712,0.011827707,0.7558842
0.6402735,-0.40738514,1.054962,0.6416927,-0.37171996,0.0133540025,0.67072827,-3.2192972,4.6245403,-0.7634026,-1.6557196,1.0948604,-0.28545704,-3.1521523,4.54542,-0.34673148,-2.020106,1.0961512,-0.22275952,0.6402735,-0.40738514,1.054962,0.68842435,-0.45688254,0.9826328
-0.17630777,-0.6869248,0.34673396,0.6375731,-0.5435783,0.21799752,-0.50049996,-4.008494,3.5552256,-1.494123,2.2457218,5.882453,-0.8465903,-3.8027813,3.5175865,-1.5290757,1.8872668,5.7916446,-0.38614336,-0.17630777,-0.6869248,0.34673396,-0.25851783,-0.73441744,0.31533402
-0.003997986,-0.03745553,0.5674633,0.5813766,-0.26079217,-0.4861013,-0.59807545,-4.726705,-5.342224,-2.0333316,3.8166647,1.8408918,1.7611016,-4.6727815,-5.5483656,-1.7368486,3.7270098,1.7905761,1.7820128,-0.003997986,-0.03745553,0.5674633,0.021328924,-0.12592427,0.52832466
-0.31828988,0.3149553,0.9343791,-0.22987683,-0.8272153,-0.10515174,-0.5018113,-5.8992963,4.512086,2.4448671,6.100565,-0.9594903,4.965532,-6.1631794,4.7004046,2.4244494,5.877566,-1.188974,5.0920963,-0.31828988,0.3149553,0.9343791,-0.40614545,0.34243354,0.9734475
0.5175795,-0.45868805,0.89603806,0.3974252,-0.1144087,0.85406005,0.31550798,-3.1612453,2.6074383,0.8678402,-1.0530354,5.4197235,4.6782146,-3.0865607,2.8409615,0.28491202,-0.6445168,5.3586287,4.6052413,0.5175795,-0.45868805,0.89603806,0.45691383,-0.5216744,0.9445396
0.46579558,0.45232457,0.60882705,0.5474721,0.59317935,-0.33730116,-0.48439705,1.004262,-1.4495505,2.4923058,5.336806,2.208965,-6.0147943,1.3586133,-1.4693369,2.5224235,5.346526,2.5714006,-5.9834375,0.46579558,0.45232457,0.60882705,0.560195,0.48459688,0.6019538
0.38165414,0.7869983,0.7740053,-0.43800867,-0.5451476,-0.68874466,0.19129375,0.44581965,5.864357,1.406837,-2.6371543,0.56313473,-3.3051693,0.33186728,6.0101542,1.3480694,-2.8789272,0.5931048,-3.119999,0.38165414,0.7869983,0.7740053,0.34217557,0.86110467,0.82831633
0.13637622,-0.82783854,0.5498559,-0.86666167,0.41137964,-0.015257291,-0.28183603,-1.776477,-1.3190875,2.098845,3.1399915,-1.2150979,-0.6827725,-1.8657045,-1.6096728,2.2018714,3.355214,-1.1536448,-0.7524136,0.13637622,-0.82783854,0.5498559,0.15691996,-0.90000397,0.4837491
-0.102020465,0.25222832,0.43957958,0.5388415,0.7178121,-0.33482406,-0.28685972,-3.3586795,5.9762683,1.6418524,-0.95090294,-2.3981535,0.34020743,-3.237441,6.135581,1.2922624,-0.7714404,-2.2627482,0.33140045,-0.102020465,0.25222832,0.43957958,-0.024754774,0.3103762,0.46505186
-0.18934265,0.3639384,0.14741705,0.10123475,-0.29673073,0.102784246,0.94400096,5.661905,3.2761483,-0.7930053,1.5990233,4.820372,-1.9432161,5.6703873,3.2468884,-0.48448405,1.3233546,4.807267,-1.947644,-0.18934265,0.3639384,0.14741705,-0.13540089,0.33852482,0.0671398
0.07460373,0.36409873,1.3800095,-0.3753302,-0.7419928,0.45085913,0.32449964,-0.29467016,-1.6990798,-1.1520925,-4.08996,1.0607661,-5.725977,-0.18903325,-1.8427159,-1.059472,-3.967818,1.1466364,-5.847859,0.07460373,0.36409873,1.3800095,0.15660322,0.39053646,1.430775
0.49013814,0.22267428,0.3180949,0.3873806,0.07284749,-0.2877598,-0.8728252,-1.9515914,4.2824183,-2.0024824,-1.0406493,1.0568202,5.154786,-1.8431165,4.4165716,-1.9040536,-1.3147124,1.075022,5.261833,0.49013814,0.22267428,0.3180949,0.5251493,0.17808542,0.23571742
0.39950398,-0.7322961,0.4910626,0.03283052,0.09276477,0.28773114,0.95264244,-3.702594,-2.0861955,-1.4731454,5.2823524,0.97224915,4.172343,-3.615408,-1.9663247,-1.4190265,5.0518866,0.96063876,4.270063,0.39950398,-0.7322961,0.4910626,0.3799404,-0.786508,0.4093415
0.01600817,-0.34189984,0.7316169,-0.04444041,0.5704961,-0.54484916,-0.61294264,2.6555755,-0.5690623,2.436411,-4.7462773,1.2339698,3.93239,2.5683088,-0.5542533,2.2117429,-4.550588,1.3206699,3.9321346,0.01600817,-0.34189984,0.7316169,0.08110178,-0.41376272,0.7560822
-0.39518985,-0.4156845,1.3016157,-0.18272536,0.48791623,-0.81672376,0.24801502,4.215296,0.23185547,-1.2497996,-3.6147487,4.0896645,4.744154,4.3401694,0.27738228,-1.1277835,-3.9393353,4.0721087,4.548904,-0.39518985,-0.4156845,1.3016157,-0.44923916,-0.39300346,1.3826357
0.35433885,-0.40453863,0.0036765335,0.84874284,-0.1513794,-0.47419283,-0.17849652,-2.4206147,-3.8226779,-2.1890166,-1.3283907,5.6888485,-0.71101767,-2.9260952,-3.8001933,-2.419383,-0.73448396,5.3300176,-1.2375581,0.35433885,-0.40453863,0.0036765335,0.42942828,-0.4471634,-0.04676855
-0.018999916,-0.31564727,0.287008,0.2640805,-0.352115,-0.30415073,0.8448484,-2.4787118,-0.77216715,1.7065469,4.729269,-1.3568891,-3.557457,-2.484298,-0.7548043,1.4340348,4.9739113,-1.387773,-3.5735333,-0.018999916,-0.31564727,0.287008,0.0565609,-0.28285235,0.23030652
0.34424978,0.5902352,0.3508496,0.44805065,0.82883966,-0.13160694,0.30814785,0.10098754,0.28702554,0.6885057,-0.05184866,-0.5334481,-1.6106213,-0.06603502,0.3183686,0.64639395,-0.26214254,-0.61816704,-1.3578144,0.34424978,0.5902352,0.3508496,0.30496207,0.67261845,0.3917087
-0.41356784,0.5514081,0.27775612,-0.5208804,0.469331,-0.2238619,0.67697704,-1.375502,3.639161,-1.6689293,5.8611345,-3.6194563,5.1554418,-1.5109866,3.756659,-1.6029878,5.4089656,-3.6497185,4.848064,-0.41356784,0.5514081,0.27775612,-0.50043416,0.5328249,0.23183328
0.116355605,-0.11142851,0.5008265,0.34630948,-0.7664313,-0.53887373,0.047623202,6.282667,-3.4893718,-1.8041826,-2.0252266,-4.190839,-3.3459754,6.0736327,-3.5386202,-1.492675,-2.1752214,-4.3302975,-3.16347,0.116355605,-0.11142851,0.5008265,0.160979,-0.1593804,0.57638687
0.52895236,-0.13676772,0.7066326,0.66281736,0.5278677,-0.10429049,-0.5207229,4.853534,-5.807228,-1.6954648,3.6519074,0.6976659,-2.0886204,4.6898913,-5.8986387,-1.5852259,3.7393525,0.82367355,-2.2519672,0.52895236,-0.13676772,0.7066326,0.59775203,-0.07765303,0.6645368
0.3670332,0.29267025,0.6296724,0.91347146,0.18164913,-0.32336968,-0.16734846,-0.89266574,-3.27867,2.289043,5.377315,-0.8211604,-5.109937,-0.62381566,-3.094079,2.1220188,5.1658506,-0.995641,-4.7752957,0.3670332,0.29267025,0.6296724,0.43219075,0.31503344,0.5571853
-0.44414127,-0.23559698,0.742906,0.10459409,-0.4533138,0.6664497,0.5825903,2.6382313,5.855024,1.385079,-3.7544112,-5.3411365,-2.5366993,2.566031,6.0417185,1.0661775,-3.6123855,-5.261444,-2.550323,-0.44414127,-0.23559698,0.742906,-0.40526336,-0.3227332,0.7728357
-0.5896643,0.62301296,0.60722136,-0.17844188,0.12611328,-0.75399673,0.6194698,-0.10853741,4.0322347,-2.141352,-1.5567667,5.7491007,2.727029,0.06616599,4.0917144,-2.4498909,-1.3004783,5.836623,2.7088275,-0.5896643,0.62301296,0.60722136,-0.63219786,0.71192783,0.6241045
-0.010443922,-0.6956595,0.11004483,-0.14805408,0.6005646,0.27757877,0.7350865,5.221757,0.39719793,0.96051097,2.7201228,3.30207,2.736209,5.397144,0.17198607,1.3471943,3.3264267,3.268075,3.5126972,-0.010443922,-0.6956595,0.11004483,-0.090517975,-0.7542516,0.097590394
-0.1761576,-0.068589285,1.0726041,0.38677162,0.605644,0.57744753,0.38750154,-2.9178772,3.0030458,2.0644135,0.7972858,1.7901518,-0.13735804,-2.9619942,2.8940725,1.8835473,1.123449,1.7370683,-0.10123975,-0.1761576,-0.068589285,1.0726041,-0.26776326,-0.06649247,1.1126541
0.2420014,-0.049459316,1.3607149,0.15991662,0.1955488,0.84560776,0.47024983,-2.3119845,4.106185,-0.47540566,-4.1755033,1.4087449,0.19653954,-2.2722034,3.8522692,-0.18915845,-4.225385,1.428399,0.18001625,0.2420014,-0.049459316,1.3607149,0.1965647,-0.1227344,1.4113733
0.79904205,0.3149966,0.7789897,0.25119287,-0.49192595,-0.29849073,0.7783407,-6.085306,-1.495311,1.6218415,-6.0655813,-4.7494984,-3.866834,-6.191171,-1.7537955,1.7879765,-5.974375,-4.8941665,-3.9017737,0.79904205,0.3149966,0.7789897,0.890615,0.33674845,0.74520725
-0.8175464,-0.31761727,0.35551143,0.6108937,0.24896711,0.63453645,0.40272543,3.3668232,-0.54763824,2.057085,4.849393,1.5834792,-5.668553,3.3671434,-0.56204,2.3078327,4.6188273,1.5822067,-5.677023,-0.8175464,-0.31761727,0.35551143,-0.9151263,-0.3383076,0.34843564
0.10281993,-0.24769618,0.91715777,-0.42845836,0.7102563,0.07839193,-0.5530047,-3.5981965,-1.8156599,1.9931533,-0.15398078,-1.4803864,2.3324215,-3.578124,-1.5583537,1.7714719,-0.19197655,-1.4867647,2.3386102,0.10281993,-0.24769618,0.91715777,0.18809247,-0.299889,0.91927963
-0.23093687,-0.39483637,-0.34931922,-0.27051845,-0.041932542,0.2912362,-0.9166477,-4.9080777,2.4303386,-0.044338107,-1.3835806,1.5358546,-2.7559361,-4.906654,2.5628948,-0.061721202,-1.5114522,1.5417283,-2.7554293,-0.23093687,-0.39483637,-0.34931922,-0.22286738,-0.33917546,-0.43200386
-0.28295448,-0.15774034,0.7564147,0.20928955,-0.9482993,0.23510006,0.040673774,0.32247663,3.189997,-1.8265227,-3.0980816,1.9777904,0.7306608,0.13188642,3.0166228,-1.5964624,-3.0631382,2.0157776,0.94028425,-0.28295448,-0.15774034,0.7564147,-0.28508112,-0.19934665,0.8473234
0.5805958,0.003495112,0.46446854,0.75014526,-0.15054443,0.15116918,-0.6259124,3.3311524,3.144517,0.79402673,3.4586856,1.6233081,-3.1581473,3.3316214,3.483129,0.2985422,3.654556,1.6168722,-3.1477716,0.5805958,0.003495112,0.46446854,0.5390705,-0.00016719245,0.37357166
-0.31362188,0.103802614,-0.33221605,0.20412381,-0.028647015,-0.3486307,0.9143137,3.2504435,0.45889983,1.2208341,3.3650644,4.113748,2.2328258,3.4150035,0.27089763,1.3440386,3.5343337,4.1389494,2.415516,-0.31362188,0.103802614,-0.33221605,-0.29415065,0.16638467,-0.40774325
0.41365847,0.601957,0.9685695,-0.5265378,-0.3797054,0.5839192,-0.48746294,-2.2898228,-3.4844906,2.215305,4.3571177,-4.248604,-4.906355,-2.426846,-3.4130373,2.374572,4.1446924,-4.140427,-4.900775,0.41365847,0.601957,0.9685695,0.4381311,0.69887066,0.96559703
0.10221317,0.8632064,0.66180277,-0.4073632,-0.3751098,0.71562177,-0.4257151,1.3086241,-0.35400712,1.8517303,-4.94955,-1.5880938,-5.042684,1.2900358,-0.25884202,2.0401568,-5.2329607,-1.5580497,-5.026195,0.10221317,0.8632064,0.66180277,0.12857878,0.9546978,0.69236714
-0.52198756,0.48625067,1.0996127,-0.2680219,-0.17608535,-0.93909794,0.12350397,-0.526111,-2.3281615,-1.8110545,-4.3124847,1.5182781,-1.4015169,-0.5260838,-2.4544578,-1.9471922,-4.0492053,1.5277398,-1.3995848,-0.52198756,0.48625067,1.0996127,-0.56797785,0.5188861,1.1821948
-0.3720804,-0.21319354,1.0721817,0.6333882,0.29752088,0.6274973,0.34139103,-3.576647,5.158881,-1.6373062,-3.4739585,1.0985291,-5.683393,-3.3573768,5.0199966,-1.5327008,-3.4351904,1.3003565,-5.697805,-0.3720804,-0.21319354,1.0721817,-0.47188446,-0.21834868,1.0686361
0.0066586006,-0.7127182,0.3168705,-0.13430738,0.4098088,-0.1393805,-0.89139855,-5.0485616,2.2490113,1.6993546,4.0263867,-3.8356144,3.144584,-5.1597295,2.3546333,1.7734283,3.7887068,-3.8434763,3.0438285,0.0066586006,-0.7127182,0.3168705,0.07597523,-0.748575,0.25434455
-0.3872442,-0.44041282,0.67018026,0.16001879,-0.89066005,0.10730784,-0.41182968,4.2758713,-0.31479743,2.3150828,3.4030485,2.2297368,-2.6991599,4.4609013,-0.061677326,2.2137215,3.1246386,2.3197317,-2.8951185,-0.3872442,-0.44041282,0.67018026,-0.4640385,-0.46007878,0.7311383
-0.06659864,0.3983471,0.9978702,0.5780945,0.73077565,-0.35946622,-0.050573632,0.4649166,-3.8408942,2.48329,4.164744,-1.0274072,-3.3344543,0.5595771,-4.064406,2.3712602,4.4622173,-1.1485674,-3.3267438,-0.06659864,0.3983471,0.9978702,-0.017645955,0.4792027,1.0305201
-0.16392393,-0.09373999,0.71279263,-0.7491216,-0.51457083,-0.20655243,0.36244962,-2.13931,-1.2412138,1.4525405,5.643083,-2.0385714,-5.6213946,-2.0841823,-1.0326196,1.0284114,5.8553534,-1.9737087,-5.617465,-0.16392393,-0.09373999,0.71279263,-0.1575693,-0.0016717887,0.674282
-0.41138676,0.67243826,0.16555892,-0.5206717,-0.3513791,-0.2389855,0.740486,2.3907154,5.9347034,1.5952643,3.0372374,3.922106,-0.5849645,2.4923453,5.7379665,1.7615108,3.1441364,3.912985,-0.48056725,-0.41138676,0.67243826,0.16555892,-0.3842351,0.744422,0.10167519
0.1181699,-0.21130913,0.5644134,0.2642875,0.23318018,0.66304356,0.66041833,0.04135696,-0.99184155,2.0056038,-1.070336,-2.3764806,-0.0004999831,0.1811157,-0.7919661,1.6957219,-0.8896909,-2.2345903,0.08315481,0.1181699,-0.21130913,0.5644134,0.052323777,-0.28656104,0.56321335
-0.8169198,0.0628774,0.6478911,-0.23170577,-0.32900003,-0.5490116,-0.7325692,-4.0632544,-5.5931664,-1.8893241,-0.08448437,-0.17809367,1.0419544,-4.2278867,-5.8001204,-1.7061486,0.5522998,-0.3001904,0.41583017,-0.8169198,0.0628774,0.6478911,-0.8905647,-0.0023141585,0.629822
-0.23601554,0.032201458,0.86281127,0.04396397,0.16880469,0.6246646,0.76116115,1.4639449,-1.4078714,1.5162361,-0.27509588,-1.3567132,-0.1723133,1.434506,-1.1861542,1.1809874,-0.16446619,-1.3910285,-0.15389206,-0.23601554,0.032201458,0.86281127,-0.2672056,-0.061408363,0.8465514
-0.33756313,-0.20863235,0.5071032,-0.45667568,-0.23656914,0.5797613,0.6319487,0.13182478,3.740992,-1.0898291,3.9284027,-4.0509253,6.2485294,0.05794821,3.4889908,-0.51031256,3.5971067,-4.1319723,6.234264,-0.33756313,-0.20863235,0.5071032,-0.25471064,-0.26030114,0.48552087
0.40773854,0.120229565,0.8162185,0.25276905,0.17189972,-0.95135885,0.03840032,4.2984953,0.4340885,2.604411,4.4199977,5.1090846,3.9892335,4.508782,0.35699227,2.3058646,4.8926773,5.1362114,3.7753243,0.40773854,0.120229565,0.8162185,0.45451313,0.13622625,0.90314513
-0.1376964,-0.10783958,0.63992065,-0.25752023,-0.6952888,0.34865934,0.573318,3.0623045,-0.62121373,1.3986663,5.718239,-1.602475,-5.571648,3.067727,-0.39250052,0.9598386,5.927389,-1.5977517,-5.571607,-0.1376964,-0.10783958,0.63992065,-0.04001473,-0.11200793,0.6609186
-0.122115806,0.3140504,0.84371036,0.9336442,0.044250973,0.3507913,-0.057409156,0.4182053,-1.9004478,1.3962984,5.868373,-1.1480713,1.9744668,0.36900872,-1.6793244,0.9575022,6.074931,-1.2146709,1.9438983,-0.122115806,0.3140504,0.84371036,-0.18711057,0.3263411,0.76871294
-0.10518926,0.25282222,0.6704636,-0.3819039,-0.29131192,-0.8373454,0.26103538,3.9962726,0.18893988,2.4961028,4.865587,3.8125107,-3.2496789,5.023124,-0.25076136,2.2735698,4.8977995,4.443175,-4.255805,-0.10518926,0.25282222,0.6704636,-0.15393782,0.3187882,0.7276656
0.21723762,-0.77313334,0.39945367,-0.8208605,-0.10288721,0.5450959,0.13591428,1.4461485,-2.692918,-1.0686476,-1.258066,2.7235484,0.012074421,1.3364109,-2.7252898,-0.8294006,-1.6894833,2.6760466,-0.23441276,0.21723762,-0.77313334,0.39945367,0.30952394,-0.7710594,0.36099672
0.7487795,-0.37938768,0.2995909,-0.189627,-0.4643483,0.16160856,0.8498853,2.6487484,3.9383245,-1.8063997,-2.707091,4.391643,-5.4687514,2.5881245,4.14266,-2.0286891,-2.695431,4.3561096,-5.5020094,0.7487795,-0.37938768,0.2995909,0.8338371,-0.38924682,0.2479382
0.25087446,-0.08994698,0.53474617,-0.40169433,-0.25904378,-0.56594574,-0.67174655,0.07052676,-0.7804185,1.3778342,-0.8599156,-2.088222,-0.022398105,0.123515725,-0.61035556,0.94711363,-0.6156207,-2.018401,-0.023384927,0.25087446,-0.08994698,0.53474617,0.17060466,-0.14517011,0.5122258
0.7962798,-0.33549926,0.6056396,0.7905097,-0.19103397,-0.2512174,0.52487165,-0.7719612,-0.1600598,-0.7621042,1.9572059,-5.097547,-3.3758795,-0.8587089,-0.30731934,-0.7016387,2.0913372,-5.152958,-3.4870944,0.7962798,-0.33549926,0.6056396,0.8560514,-0.33933073,0.52556044
-0.15077204,0.3762195,0.45314032,-0.58137774,-0.6584807,-0.46615002,-0.10539072,-0.57215464,-0.04391913,2.389096,4.253097,-1.3636566,-5.9484906,-0.6552163,-0.13057788,2.1943269,4.526241,-1.4462588,-5.872597,-0.15077204,0.3762195,0.45314032,-0.21885343,0.44295913,0.48331887
-0.21678202,0.025545372,0.4027962,0.5821115,-0.1543724,0.7970007,0.045883086,0.089631274,-0.10073652,2.0677047,-1.6392471,-1.7512718,1.7358545,0.1046216,-0.07868653,1.7921677,-1.3812523,-1.717088,1.7370723,-0.21678202,0.025545372,0.4027962,-0.30815405,0.00025921254,0.4346044
0.23060171,0.22053865,1.2953327,0.07183899,-0.96223545,-0.019668061,-0.2618305,0.33307624,-0.96356696,1.1714829,0.81745243,-1.566164,-1.8785548,0.30710626,-0.7793425,1.0746095,0.7262994,-1.5585774,-1.8343002,0.23060171,0.22053865,1.2953327,0.18049578,0.20568351,1.3805895
0.6338303,0.70564276,0.22764198,0.35214382,0.039426357,-0.6614804,0.660972,0.28065252,-0.27280587,1.5619252,-1.0605534,-5.5715065,-2.7878053,0.10799604,-0.3032555,1.8061829,-1.2606943,-5.732733,-2.8026736,0.6338303,0.70564276,0.22764198,0.6752056,0.7958635,0.21546413
0.116144195,0.022079611,0.9491842,0.7428971,-0.48175216,-0.2217642,-0.40845978,-1.6210209,4.5520477,-0.9624499,-3.1362455,1.6022432,-2.17614,-1.6004725,4.147372,-0.23657589,-3.4594917,1.6014898,-2.1760356,0.116144195,0.022079611,0.9491842,0.109738514,-0.067615196,0.9054371
0.35691786,-0.035013136,0.21752584,-0.7900589,-0.3514923,-0.1764628,-0.470235,-0.5338943,-0.1348929,0.76712996,1.7357191,1.5354116,-3.1930928,-0.54647166,-0.057185452,0.3529228,2.038262,1.5334167,-3.196933,0.35691786,-0.035013136,0.21752584,0.29597786,0.00393099,0.14846303
-0.3812919,0.4490153,0.8982047,0.20450993,-0.33449814,0.3725604,-0.84112155,0.975763,-2.32899,1.9232439,-1.1314908,-0.48654354,-1.1195376,0.5229643,-2.2108035,1.4889113,-0.20982103,-0.704639,-1.8364028,-0.3812919,0.4490153,0.8982047,-0.45280105,0.4980074,0.8483428
0.3008323,-0.5151891,1.2096659,0.5277978,-0.39130718,-0.65730923,0.36912423,4.1671,6.283159,-1.2859854,4.7006702,0.6334688,0.15350454,4.0509167,6.2456555,-1.065297,4.44968,0.76909375,0.27309522,0.3008323,-0.5151891,1.2096659,0.39910576,-0.50796956,1.2267013
0.7826097,0.38832936,0.97592473,0.7697366,0.56102985,-0.30198863,-0.039420225,-2.9376478,4.442291,-1.5277357,-0.07875095,2.3806448,2.4594553,-3.0539627,4.612097,-1.6843964,-0.11134397,2.4489946,2.426359,0.7826097,0.38832936,0.97592473,0.8335232,0.47231752,0.95711505
-0.30393845,0.188835,0.19145334,0.24599847,-0.33637717,-0.040611625,-0.9081222,1.1621305,5.3337746,2.6817033,-2.7744558,-1.103507,-1.0650687,1.0281771,4.9684854,2.5972002,-2.2707226,-1.1767044,-1.190741,-0.30393845,0.188835,0.19145334,-0.36303467,0.16490927,0.11441312
-0.04580772,-0.7147198,0.06752163,-0.84812015,-0.009161792,-0.3762991,-0.3728368,-4.0655804,3.488247,-1.5850549,-0.56881756,0.8166142,-0.09123338,-3.9614007,3.6584198,-1.6508628,-0.7577022,0.8492766,0.03989856,-0.04580772,-0.7147198,0.06752163,-0.11032026,-0.74122536,-0.004141372
-0.13841648,-0.38903174,-0.042930603,-0.85467386,-0.29250005,0.013520437,-0.42871144,-4.549401,-3.4236002,-0.3914942,1.6494583,4.850832,-3.8637626,-4.5237436,-3.3001335,-0.3865675,1.5433065,4.8417153,-3.8499668,-0.13841648,-0.38903174,-0.042930603,-0.161185,-0.33787405,-0.12578279
0.3577714,-0.7499053,0.9268118,-0.29200915,0.8073872,-0.2917363,-0.4216,-1.576778,-0.8028316,1.9806871,1.3767471,-1.0711958,-1.0101699,-1.801905,-0.76579094,2.1828928,1.0475109,-0.8522046,-0.82291305,0.3577714,-0.7499053,0.9268118,0.40881234,-0.8216574,0.97420865
-0.34512872,0.5719347,0.4396777,0.9382832,0.16369234,0.30315018,-0.030487109,-4.890391,-1.1846404,1.8059803,-5.645204,-5.3911214,6.2830486,-5.0431023,-1.350166,1.8107089,-5.356585,-5.414894,6.092424,-0.34512872,0.5719347,0.4396777,-0.40101874,0.60450107,0.36341673
-0.13122375,-0.17653327,-0.15851589,0.20315683,-0.24556783,0.015874753,0.9477192,-3.1464355,0.10715969,1.41447,0.5256171,1.4717447,-1.1595623,-3.2261224,-0.09095182,1.5253147,0.6221551,1.4791299,-1.2552848,-0.13122375,-0.17653327,-0.15851589,-0.085322894,-0.18951999,-0.24640477
-0.030251676,0.6214607,0.008817051,-0.0007914411,-0.32882068,0.49831027,-0.8022239,-1.8831465,-3.2269442,-1.7516328,-1.7562113,3.9005942,-2.8794398,-2.1564858,-3.179598,-1.8084886,-1.9330325,3.681879,-3.1347005,-0.030251676,0.6214607,0.008817051,-0.08293036,0.701464,-0.019895718
0.02625719,-0.2666233,0.028533911,-0.69935536,0.4013845,-0.5683428,-0.16364302,-2.489908,-4.082616,-0.40490225,1.363792,4.9074726,5.105122,-2.4350214,-4.0796604,-0.15287238,1.1634634,4.8603024,5.0872884,0.02625719,-0.2666233,0.028533911,-0.040100772,-0.3413664,0.025358517
0.3298856,0.007844984,0.0074642347,0.78005165,-0.47292545,-0.23883523,0.3328944,5.1923757,3.0916429,-2.091067,5.7705746,-5.055542,-3.2355375,5.3371563,3.2666557,-2.0667574,5.5435977,-4.951277,-3.185262,0.3298856,0.007844984,0.0074642347,0.3986332,-0.050034888,-0.036395617
0.73399216,-0.45631248,0.48447078,0.08151596,-0.2819885,-0.26319993,0.91900134,2.345183,3.849893,-1.020877,5.150113,-3.9391215,-2.131095,2.2661638,3.8794014,-0.84713507,4.857933,-3.9524071,-2.262306,0.73399216,-0.45631248,0.48447078,0.79011273,-0.41253358,0.41422912
-0.40522125,-0.74627197,0.9467811,-0.6177399,0.48311532,-0.346648,0.51461846,1.8652879,-3.0081508,1.1380454,3.1767917,-6.0144553,-4.3638453,2.013015,-2.833187,0.97028613,2.890111,-5.9387326,-4.06806,-0.40522125,-0.74627197,0.9467811,-0.4977729,-0.7702816,0.9174942
-0.32348764,-0.11963565,1.140164,0.6077261,0.12013538,0.6393426,-0.45549694,4.4259114,6.087425,-1.2031596,-2.0675755,2.574327,-1.4018842,4.6126723,6.0268984,-0.9543112,-2.1760578,2.4249384,-1.2862891,-0.32348764,-0.11963565,1.140164,-0.3902524,-0.046790045,1.1248024
-0.21560042,-0.05190541,0.7040464,-0.7227503,-0.36439267,0.26338828,-0.52485865,1.3808304,-3.3931344,1.5214586,-0.59259593,4.8562374,1.7638844,1.4012243,-3.2133467,1.1435907,-0.42289123,4.8337917,1.7540381,-0.21560042,-0.05190541,0.7040464,-0.21577856,0.028415896,0.6444775
-0.3729842,-0.36393017,0.15860705,0.916158,0.26558596,0.13981453,-0.26565096,-4.9850497,3.7417502,-1.4425379,5.001502,-4.9782124,0.36660057,-4.929263,3.8209486,-1.3216176,4.807968,-4.9747305,0.41432133,-0.3729842,-0.36393017,0.15860705,-0.38449198,-0.30783805,0.07662385
-0.18540621,0.020693427,1.1003176,-0.5725381,0.7142802,-0.014227076,-0.40224567,-4.105618,0.043311115,-1.1297582,4.2477345,-4.727291,-0.6429169,-4.109025,-0.12068221,-0.64436674,3.9320798,-4.7255855,-0.64426607,-0.18540621,0.020693427,1.1003176,-0.1295721,-0.062241647,1.1023973
0.41141635,0.21470834,0.80021226,-0.02283483,0.13683866,-0.980063,-0.14223282,-2.1889274,2.1976068,1.0509092,1.7244298,1.4079926,-5.412007,-2.158222,2.2182791,0.7660563,1.972659,1.4165334,-5.4371514,0.41141635,0.21470834,0.80021226,0.41083303,0.18620397,0.8960619
-0.33210793,0.22427933,1.1319903,-0.7378312,0.30571023,-0.48785242,0.35234424,-5.4991593,-0.9451348,-0.6209875,-5.1600313,-0.9923989,-3.4420273,-5.745499,-1.0748167,-0.24987063,-5.32358,-1.1689731,-3.5597377,-0.33210793,0.22427933,1.1319903,-0.4256415,0.21354522,1.0982821
0.039853662,0.33918375,-0.08580797,-0.08204931,0.34293813,-0.23093149,0.90682524,-6.1894093,0.23459579,1.256688,0.82409215,-5.138875,1.3160907,-6.279123,0.061239302,1.3441318,0.91617364,-5.069781,1.2503166,0.039853662,0.33918375,-0.08580797,-0.02613288,0.37543908,-0.15162079
0.31140998,-0.64181036,-0.016054993,0.7827613,-0.016691322,-0.6040686,-0.14868529,-4.7350807,-3.5778048,-0.4744139,3.0822995,3.4779963,3.928314,-4.901642,-3.5782406,-0.46268252,2.6904683,3.4422507,3.5214,0.31140998,-0.64181036,-0.016054993,0.40548193,-0.6623866,-0.043019507
0.70384103,0.35123274,0.59553933,-0.81114924,-0.21223414,0.23865533,-0.48993593,-0.099483736,-1.2828422,1.5497919,-2.0074582,-0.9408833,0.44535613,-0.2112728,-1.3778895,1.4559587,-1.7405821,-0.9140576,0.33141115,0.70384103,0.35123274,0.59553933,0.7217618,0.40904862,0.5159393
-0.17814352,0.18156414,0.76669097,-0.5596244,-0.4484869,-0.65224737,-0.24546576,-0.1601661,-0.6809709,2.4815745,-4.6880865,1.536341,3.6900332,-0.1703916,-0.69118565,2.2177474,-4.4460673,1.544518,3.6929154,-0.17814352,0.18156414,0.76669097,-0.27316386,0.19974011,0.7920044
0.1286182,-0.59952295,1.0041927,0.21209782,0.9159957,-0.054986954,-0.33606964,1.5069734,-3.7399635,1.1254706,-1.5807137,-2.2362583,-3.015943,1.4331199,-3.6747985,0.79667443,-1.2722963,-2.1954043,-2.939351,0.1286182,-0.59952295,1.0041927,0.19251838,-0.5643627,1.072607
-0.19142455,0.11190776,0.9571284,-0.4088377,-0.88398725,-0.17526302,0.14387885,3.5942209,0.8410979,-2.0619726,-4.1070113,4.0022216,-5.0083385,3.7403312,0.9093705,-1.8842485,-4.435723,4.1064243,-5.145082,-0.19142455,0.11190776,0.9571284,-0.18031795,0.18923256,1.0195585
-0.029815126,-0.5004907,0.26050925,0.32847264,-0.61748654,0.1717021,0.69378275,-3.0088468,0.03606776,1.4978282,1.3313226,0.74208045,-1.1941371,-3.1678498,0.01067688,1.4083084,1.4870695,0.89339936,-1.2512738,-0.029815126,-0.5004907,0.26050925,0.044585284,-0.56488097,0.2426635
-0.061720397,-0.7948781,0.6851913,0.3577981,-0.6684194,-0.5908366,-0.27587697,-4.5323625,3.245883,-1.6158478,-4.1272388,-4.8459215,1.313344,-4.5220423,3.1244378,-1.7448257,-3.9090126,-4.8449183,1.3117831,-0.061720397,-0.7948781,0.6851913,-0.05632066,-0.87530965,0.74436575
0.101346545,0.11873684,1.1921302,-0.53766614,-0.15918797,-0.82727736,0.034445312,-0.24461415,-5.9827676,-1.6698937,-1.384804,1.5582681,4.5897627,-0.265503,-5.949395,-1.4574933,-1.6267586,1.5579447,4.589976,0.101346545,0.11873684,1.1921302,0.013483398,0.14155401,1.2340759
0.5043321,0.36508405,0.9768916,0.34177145,0.8940458,0.10499707,0.26990741,3.448742,2.5712743,1.072044,-1.5080597,-2.316514,-4.5361614,3.3512955,2.5939746,0.8450798,-1.2651267,-2.287546,-4.452787,0.5043321,0.36508405,0.9768916,0.44889322,0.42052802,1.0389601
0.6926306,-0.16070582,0.1505597,0.7238458,-0.20050976,-0.17339145,0.6370075,-0.5805969,-0.723989,1.7185447,0.08521562,-4.943552,-3.542444,-0.6226795,-0.96757627,1.884146,0.17069963,-4.953555,-3.5771022,0.6926306,-0.16070582,0.1505597,0.74327755,-0.16764313,0.06461345
-0.07877037,0.3490419,0.56334114,0.30248338,0.9453436,-0.1157074,-0.03796114,0.62619436,0.7292631,1.6995722,-0.36837515,5.1202626,3.7477694,0.7206815,0.9502355,1.3733202,-0.22971639,5.026957,3.6635532,-0.07877037,0.3490419,0.56334114,-0.06459319,0.40535358,0.6447537
0.1341858,-0.04312672,1.1361715,0.008518869,-0.38804597,-0.4230641,0.8187579,-4.849207,-2.7808092,1.1135365,5.2147565,4.1243463,-0.5155616,-4.983571,-2.6196406,0.64066416,5.4984827,4.227568,-0.54643905,0.1341858,-0.04312672,1.1361715,0.19844975,0.025489552,1.102084
0.29829058,-0.6334077,0.5434152,0.07526628,0.2817488,0.002339645,-0.95652866,-4.4474297,-1.9582182,-1.4697725,-1.1624318,2.1241198,3.2772853,-4.530946,-1.9641278,-1.2284471,-1.4738219,2.133564,3.175806,0.29829058,-0.6334077,0.5434152,0.35215554,-0.6287189,0.45929277
0.15252204,-0.7014013,0.9867962,0.082216576,-0.7874602,-0.5956405,0.13549636,-4.531508,-2.6707182,-1.4505528,-0.6292823,-1.8974632,4.228185,-4.539286,-2.8839211,-1.3270811,-0.5332031,-1.8525202,4.235622,0.15252204,-0.7014013,0.9867962,0.18365593,-0.69820833,1.0817724
-0.23629074,-0.095876776,0.69276255,-0.36085835,0.76040053,0.25251165,-0.47729462,2.8657317,5.7725964,1.1059082,-0.3070378,4.7605333,-3.7619314,2.8580184,6.0789948,0.53294444,-0.040966526,4.755989,-3.7599227,-0.23629074,-0.095876776,0.69276255,-0.14547953,-0.12665166,0.7211568
0.42471948,-0.62370193,0.8934429,-0.040584404,0.9374194,0.08196137,-0.3359763,-1.6012994,5.738004,1.7365664,3.5247166,0.87970865,3.3447275,-1.7074479,5.9199195,1.6791937,3.3179142,0.8827707,3.473876,0.42471948,-0.62370193,0.8934429,0.4883749,-0.6258035,0.97053754
-0.436922,-0.5879598,1.0029013,-0.14482626,0.22457148,-0.93233204,-0.24361858,-2.694166,-0.95116764,2.1699493,3.901858,1.1319079,-4.752676,-2.735353,-0.7424068,2.3010275,3.5864975,1.1588905,-4.7247915,-0.436922,-0.5879598,1.0029013,-0.4529853,-0.63989127,1.0868363
0.27968973,-0.72185373,0.8134076,-0.61410147,0.63403636,-0.1138956,-0.45596606,2.1953826,3.092469,1.9504898,1.0356485,-1.4366659,-3.9255555,2.3617516,3.245007,2.1503887,0.708969,-1.2517141,-3.9004984,0.27968973,-0.72185373,0.8134076,0.32352084,-0.8101128,0.79640245
0.037445806,0.16508411,0.37217134,-0.16176364,0.15701005,-0.6827229,-0.69503224,1.3059579,0.8812745,-1.2571852,0.35980755,-1.8331006,0.46775427,1.3326448,0.60004294,-0.7520366,0.13458596,-1.7943965,0.46497,0.037445806,0.16508411,0.37217134,0.037183266,0.06510151,0.3703239
0.024782276,0.23461448,0.31145465,-0.3892144,0.7493565,-0.10670282,-0.5249681,1.8378978,0.86536884,-0.84237075,0.15814279,-2.0447245,-4.1161304,1.9483434,0.4722932,-0.14679691,-0.19933052,-1.9979067,-4.168416,0.024782276,0.23461448,0.31145465,0.09515387,0.1650793,0.32603878
-0.4044389,-0.85601765,0.3595273,0.48989284,-0.26490307,0.5124764,0.65360487,-2.5131583,-0.4068264,1.7957443,2.2387266,5.4340835,3.9281986,-2.654194,-0.51618516,2.0980682,2.1026592,5.545263,3.8382127,-0.4044389,-0.85601765,0.3595273,-0.42002222,-0.9489639,0.3260884
-0.3868964,-0.17526655,0.6079196,-0.78001225,0.053333968,-0.06783143,0.6197865,3.2760828,-0.12072101,-1.4494567,2.9675548,1.5916077,-3.2334058,3.2872891,-0.35675988,-1.1942683,2.9487147,1.598731,-3.2255685,-0.3868964,-0.17526655,0.6079196,-0.4040894,-0.17517859,0.5094087
-0.5414627,-0.47432712,0.13948499,-0.29794115,-0.24778053,-0.21476848,-0.896499,3.771269,5.824128,2.1251516,-3.8937976,-1.7132689,-3.4928916,3.7875712,5.60699,2.3673313,-3.9181197,-1.7088798,-3.4911714,-0.5414627,-0.47432712,0.13948499,-0.59868735,-0.49807024,0.06098912
0.40403306,-0.1623401,0.7303656,0.5712685,0.11960436,-0.6218464,0.522163,-1.6231133,5.031151,1.6031693,5.6764297,5.31701,4.3000555,-1.6924593,5.2248764,1.2921791,5.8190694,5.2249002,4.272491,0.40403306,-0.1623401,0.7303656,0.46259072,-0.083733834,0.7105652
0.42818734,0.009880021,1.2925942,0.16953374,-0.18135935,-0.9567189,-0.15184192,0.15567574,-5.976951,-2.3647544,0.725861,-4.3116274,4.231925,0.2699275,-5.7197256,-2.5593169,0.6514279,-4.2944713,4.148036,0.42818734,0.009880021,1.2925942,0.45511898,-0.025323292,1.3822347
-0.3484063,-0.5750962,-0.14619993,0.23828427,0.04587416,-0.15898296,-0.9569956,-2.5684035,0.08604935,0.8102124,0.6087196,1.2350072,-1.4830484,-2.6182706,-0.084669895,0.915631,0.73832893,1.2396228,-1.5393627,-0.3484063,-0.5750962,-0.14619993,-0.33204943,-0.6033392,-0.24072392
0.16835718,-0.5308838,0.64128596,0.98811704,-0.030224392,-0.06199808,-0.13735901,-4.239199,-2.1252077,-0.7315792,1.389235,4.6321216,3.87352,-4.241304,-2.2053607,-0.31586972,1.0802472,4.6405115,3.8791535,0.16835718,-0.5308838,0.64128596,0.17977913,-0.53856003,0.5422374
-0.12724388,-0.28445327,0.1672669,-0.6674186,-0.41917568,0.19918083,-0.58238405,1.7451105,3.6047766,-1.443455,-1.5525154,1.4863222,-1.2141787,1.7553974,3.580688,-1.162367,-1.8092453,1.4957309,-1.2099555,-0.12724388,-0.28445327,0.1672669,-0.14948073,-0.20530018,0.11034316
-0.04208843,-0.348568,0.79911363,0.037662428,-0.38034904,-0.54691184,-0.7448514,-2.2446308,4.792447,-2.6069012,-5.1983824,4.8213897,-3.7946854,-2.230338,4.584655,-2.369823,-5.2380395,4.793584,-3.8388047,-0.04208843,-0.348568,0.79911363,-0.094629526,-0.43290657,0.7878692
-0.10522609,0.17835423,0.7635253,0.29235676,-0.35902995,0.87777543,-0.123025805,4.439165,3.4098551,-2.076967,3.5732644,2.1908581,1.11225,4.194493,3.2782474,-1.845819,3.6306841,2.1334033,1.3950497,-0.10522609,0.17835423,0.7635253,-0.1653848,0.17895907,0.84340376
0.20264642,-0.12927806,0.83036435,-0.5799189,0.6650416,-0.24432701,-0.4021418,0.9511717,-1.6505129,2.0654833,5.8738694,-2.4449642,-4.0954895,1.1327357,-1.3949201,1.852556,5.8694444,-2.259369,-4.036383,0.20264642,-0.12927806,0.83036435,0.22779666,-0.22606294,0.8307596
-0.8633977,0.10244814,0.402155,0.0042527257,0.17522776,-0.043034673,0.9835777,0.09717672,-3.0512385,0.40920323,1.4296421,-1.4608064,-1.5005008,0.10588562,-2.8854814,0.32079175,1.3455905,-1.4681056,-1.5000416,-0.8633977,0.10244814,0.402155,-0.89783114,0.11106277,0.30866638
0.63511616,-0.39637297,-0.0049268156,0.5916573,-0.50960183,-0.07025825,0.6207346,-0.9120842,0.3868222,1.5748833,1.6931661,-1.3099198,-0.8134104,-0.9706046,0.3719549,1.8668238,1.4450117,-1.2817378,-0.8427753,0.63511616,-0.39637297,-0.0049268156,0.70669544,-0.44795254,-0.05200077
-0.7056308,0.13150144,0.8323075,-0.30552793,-0.3326482,-0.31708333,-0.8339401,2.1240153,-1.7196393,1.7077663,-1.7587419,-0.6170873,1.3578672,1.9315758,-1.8288128,1.5847949,-1.3260335,-0.60978764,1.0741988,-0.7056308,0.13150144,0.8323075,-0.7804881,0.09894239,0.77454686
-0.15314153,0.047216054,1.4258543,-0.49547508,0.81214535,-0.20466271,-0.23029883,5.375924,4.5205994,-1.2349423,5.6671667,-2.0404856,5.393298,5.341344,4.2740974,-1.0001695,5.696212,-1.9725529,5.413995,-0.15314153,0.047216054,1.4258543,-0.13601537,-0.042690217,1.4661477
-0.14224699,-0.074921206,1.2606244,0.0119010545,-0.71020454,0.4703617,-0.52366763,4.9613895,-1.7693368,2.1354215,-2.854513,2.211865,1.4084375,5.139785,-1.485887,1.9698128,-3.0554085,2.099869,1.2580599,-0.14224699,-0.074921206,1.2606244,-0.21774878,-0.027349,1.3057506
-0.08476688,-0.86506426,0.81261206,0.46206072,-0.3427335,0.2650013,0.77382684,4.0613937,6.2489686,-1.4462223,-0.6619552,5.4394674,3.7917635,3.9272766,6.111026,-1.475896,-0.41925144,5.507272,3.6773715,-0.08476688,-0.86506426,0.81261206,-0.056212943,-0.93775004,0.75015044
0.69928247,0.49264407,0.6429533,-0.7157945,0.24646914,0.60560375,-0.24522503,0.9381146,-0.9726566,1.5063752,-0.25344044,2.5546174,-2.0519981,1.1023821,-1.0070577,1.5448413,-0.18040545,2.7173533,-1.9611006,0.69928247,0.49264407,0.6429533,0.7980681,0.48706168,0.6284539
0.7750181,0.25205696,0.080954775,0.96132666,0.20965323,0.14493199,-0.104361415,-0.10437435,6.184829,0.5426259,4.565913,5.131688,-4.657461,-0.15619376,6.0784993,0.52723783,4.68609,5.125995,-4.706527,0.7750181,0.25205696,0.080954775,0.7515286,0.29539105,-0.006053274
0.0068666073,0.8399566,0.28005937,-0.48537022,-0.74179316,0.011018846,-0.46264163,-1.9366188,3.1859803,-1.3267919,-1.567919,3.6327786,-0.5174384,-2.1123652,3.212568,-1.3785012,-1.4819632,3.4418907,-0.43870577,0.0068666073,0.8399566,0.28005937,-0.060700625,0.91298497,0.29013506
-0.18731456,0.5632366,-0.24734466,0.928948,-0.1726039,0.32656577,-0.024866752,1.2291034,0.52499115,0.3060725,4.4914813,5.2094617,-3.592523,1.1650437,0.31528002,0.52368414,4.4903483,5.1733646,-3.6419148,-0.18731456,0.5632366,-0.24734466,-0.2488455,0.5327927,-0.3200572
-0.046218697,-0.008671341,-0.13191298,0.97959363,-0.09113128,-0.087787084,-0.15615642,1.2347094,0.63884306,2.3658528,1.8627589,-1.7628707,-3.1465368,1.2471919,0.54311454,2.6357605,1.6878868,-1.72693,-3.1379285,-0.046218697,-0.008671341,-0.13191298,-0.031865712,-0.029267369,-0.22871068
0.032568894,0.23831223,1.2215798,-0.35485762,0.38455334,0.84781986,0.08600176,-4.509244,-5.671408,-2.063798,5.55092,-4.2573094,-4.343094,-4.4403906,-5.521031,-1.9208454,5.225694,-4.312064,-4.395959,0.032568894,0.23831223,1.2215798,0.08612551,0.1964371,1.2949157
-0.44225872,0.20570515,0.35659084,-0.56914896,0.5112105,-0.336725,0.5489532,1.0355114,5.5679803,2.4993982,-2.1106398,-0.76532125,-2.7482135,0.7841311,5.456863,2.4252162,-1.8675709,-0.98446304,-2.816366,-0.44225872,0.20570515,0.35659084,-0.53671414,0.18448342,0.33153483
-0.49125472,0.1382458,1.146465,0.46941718,0.736791,0.4259705,0.23523535,1.9322087,-2.674476,2.6749034,2.5957174,-0.9762098,-2.7804706,2.2408328,-3.0097618,2.8193333,2.8400047,-1.2841685,-2.9306502,-0.49125472,0.1382458,1.146465,-0.56591016,0.18737762,1.1913272
0.17341924,-0.84423745,0.45099762,-0.26921448,-0.10022548,0.7332791,0.6162631,-2.0701866,-0.5787134,2.0291295,-1.6334324,0.5202202,-0.117941126,-2.2965078,-0.61692536,2.2599282,-1.8259697,0.31604606,-0.099670656,0.17341924,-0.84423745,0.45099762,0.22525415,-0.9292196,0.46054628
0.26915157,0.55358386,-0.21517174,0.89161646,-0.03321217,-0.045319106,0.44929186,0.96528256,0.79408807,-0.5764915,1.2998104,1.6561021,4.731617,0.97468543,0.7940067,-0.8277677,1.5716728,1.6483427,4.736957,0.26915157,0.55358386,-0.21517174,0.2802174,0.5517337,-0.31454036
0.008302467,-0.07628647,0.6081058,0.8231582,0.0851565,0.31326163,-0.4658606,-3.7091892,3.2372475,1.9291863,-4.2287717,-4.564873,1.9896262,-3.6903934,3.3559425,1.6075974,-4.0391264,-4.588307,2.0178328,0.008302467,-0.07628647,0.6081058,-0.035336096,-0.03307977,0.5291827
0.67388076,0.038622953,1.0904772,0.01120281,-0.8587418,-0.48821843,0.1551765,-0.30231187,-0.5845902,1.4220831,0.9690486,-1.355098,-0.26219663,-0.33161172,-0.43715718,1.4617759,0.78229016,-1.3598621,-0.25193807,0.67388076,0.038622953,1.0904772,0.70162594,0.051850896,1.1856362
0.1730675,0.6494243,0.43380156,0.7773196,0.47236118,-0.07247459,-0.4091413,-4.9114795,4.9501834,2.1943607,-0.245207,1.9364293,0.58022666,-4.871784,4.6591687,2.3159528,-0.06820572,1.9217982,0.5949733,0.1730675,0.6494243,0.43380156,0.22298717,0.71692896,0.37947708
0.634162,0.46693438,0.74831504,-0.09031873,-0.64537215,-0.24110582,0.71916986,0.43190095,-1.1492393,2.443417,-4.385678,4.7640243,-1.3400668,0.4017076,-1.2605487,2.7096853,-4.5408425,4.795238,-1.3424072,0.634162,0.46693438,0.74831504,0.7226332,0.51327145,0.7432425
0.11780247,0.7942839,0.7483428,-0.4534897,-0.11145457,0.88381875,-0.02809693,1.7426441,6.0501075,1.139402,3.8204184,2.4888353,3.2300045,1.8621131,6.199256,0.97329736,3.6990497,2.5120876,3.046445,0.11780247,0.7942839,0.7483428,0.1973367,0.80935913,0.80705434
0.59124285,0.38380173,0.23881608,-0.63642627,-0.51509243,0.5458468,-0.1780242,-2.769401,-3.1602857,-1.9296935,-1.0661602,-2.183442,5.2747164,-3.0998163,-3.1971455,-1.9071212,-0.98712337,-2.566992,5.3558226,0.59124285,0.38380173,0.23881608,0.6423813,0.4688002,0.25146988
0.4964231,0.6217759,0.73306894,-0.736657,-0.09901228,0.4626444,-0.48321128,0.6429302,-1.4938416,1.5022718,0.5812985,1.4341509,-2.0277386,0.6263335,-1.686375,1.5462168,0.73069227,1.4348829,-2.0321074,0.4964231,0.6217759,0.73306894,0.55501634,0.68107456,0.67783755
-0.51766527,0.406974,1.0734564,-0.029130049,-0.23445034,0.32635537,-0.9152468,2.4162598,4.57096,1.0265409,4.5903745,-1.7643963,-5.4535084,2.4357183,4.567503,0.78054947,4.8373075,-1.7549715,-5.4449096,-0.51766527,0.406974,1.0734564,-0.55867994,0.46807906,1.0057514
0.5258325,0.6576201,0.75173825,-0.2167049,-0.5108529,0.3072251,0.77309835,-4.979155,-0.8398027,1.0703058,4.45008,-2.8496711,5.4384847,-4.8582993,-0.7527898,0.7445914,5.0977106,-2.8277547,5.8643928,0.5258325,0.6576201,0.75173825,0.6181358,0.63225794,0.72280985
0.5765271,-0.3748101,1.1954831,-0.29077262,-0.2758762,0.57492244,0.7133076,-0.84620667,-0.4751424,-1.6593555,5.4645596,4.8160505,-3.1014483,-0.89802665,-0.66506577,-1.6697872,5.666673,4.857645,-3.118069,0.5765271,-0.3748101,1.1954831,0.6493184,-0.44078594,1.1768118
0.41755754,0.79452795,0.88637704,-0.25055078,-0.8787154,-0.350895,0.20483224,0.7996829,-0.22043686,1.1158892,1.3084091,-1.3142371,-1.6933482,0.7258176,-0.11108705,1.1714956,1.0975056,-1.2521261,-1.6344595,0.41755754,0.79452795,0.88637704,0.43597198,0.85293543,0.9654306
0.18124479,0.041689154,1.4229082,-0.36396667,0.5230126,0.7649425,0.09406945,5.3839374,-2.904257,1.5442455,0.5639074,1.507396,4.370782,5.39458,-3.0925868,1.5858979,0.7125272,1.5136045,4.3621044,0.18124479,0.041689154,1.4229082,0.2270876,-0.010774219,1.494644
0.7565945,-0.038669184,0.16707672,0.36037973,-0.377725,0.09593211,0.8474947,3.7745187,3.6175325,-1.4931159,-3.4043787,5.4966154,-3.416996,3.9093683,3.8268697,-1.731337,-3.4485765,5.5069537,-3.24922,0.7565945,-0.038669184,0.16707672,0.8137041,-0.08215446,0.09745255
-0.04862673,0.3126869,-0.32871655,0.85129493,0.03416252,-0.25618866,0.45661497,2.0806859,0.5360145,1.4863378,2.6715004,-2.0927405,-3.6090589,2.2449107,0.3499247,1.778985,2.6157134,-2.0888448,-3.442751,-0.04862673,0.3126869,-0.32871655,-0.00812813,0.34189928,-0.4153566
